;FLAVOR:UltiGCode
;TIME:5548
;MATERIAL:20247
;MATERIAL2:0
;NOZZLE_DIAMETER:0.4
;Generated with Cura_SteamEngine 3.2.1
M82 ;absolute extrusion mode

;LAYER_COUNT:52
;LAYER:0
M107
G0 F9000 X94.609 Y120.68 Z0.3
;TYPE:SKIRT
G1 F1800 X95.042 Y120.419 E0.06067
G1 X95.51 Y120.229 E0.12128
G1 X96.003 Y120.116 E0.18198
G1 X96.473 Y120.081 E0.23853
G1 X155.655 Y120.082 E7.34037
G1 X156.159 Y120.122 E7.40104
G1 X156.65 Y120.241 E7.46167
G1 X157.117 Y120.436 E7.5224
G1 X157.547 Y120.701 E7.58301
G1 X157.93 Y121.031 E7.64368
G1 X158.256 Y121.418 E7.7044
G1 X158.517 Y121.851 E7.76507
G1 X158.707 Y122.319 E7.82568
G1 X158.82 Y122.812 E7.88637
G1 X158.855 Y123.282 E7.94293
G1 X158.855 Y194.463 E16.48465
G1 X158.815 Y194.967 E16.54532
G1 X158.696 Y195.458 E16.60594
G1 X158.502 Y195.925 E16.66663
G1 X158.236 Y196.355 E16.7273
G1 X157.906 Y196.738 E16.78797
G1 X157.519 Y197.064 E16.84869
G1 X157.086 Y197.325 E16.90936
G1 X156.618 Y197.515 E16.96997
G1 X156.125 Y197.628 E17.03067
G1 X155.655 Y197.663 E17.08722
G1 X96.473 Y197.663 E24.18906
G1 X95.969 Y197.623 E24.24973
G1 X95.478 Y197.504 E24.31036
G1 X95.011 Y197.31 E24.37104
G1 X94.581 Y197.044 E24.43172
G1 X94.198 Y196.714 E24.49238
G1 X93.872 Y196.327 E24.5531
G1 X93.611 Y195.894 E24.61377
G1 X93.421 Y195.426 E24.67439
G1 X93.308 Y194.933 E24.73508
G1 X93.273 Y194.463 E24.79164
G1 X93.273 Y123.281 E33.33348
G1 X93.313 Y122.777 E33.39415
G1 X93.432 Y122.286 E33.45477
G1 X93.626 Y121.819 E33.51545
G1 X93.892 Y121.389 E33.57613
G1 X94.222 Y121.006 E33.6368
G1 X94.609 Y120.68 E33.69752
G10
G0 F9000 X95.768 Y131.086
G0 X97.078 Y131.086
G0 X124.584 Y193.072
;TYPE:WALL-INNER
G11
G1 F1800 X97.864 Y193.072 E36.90392
G1 X97.864 Y131.872 E44.24792
G1 X124.251 Y131.872 E47.41436
G1 X124.701 Y131.872 E47.46836
G1 X124.964 Y131.872 E47.49992
G1 X124.736 Y131.954
G1 X124.701 Y131.967
G1 X124.67 Y131.985
G1 X124.251 Y132.233 E47.5365
G1 X124.005 Y132.421 E47.57365
G1 X123.992 Y132.433 E47.57577
G1 X123.807 Y132.603 E47.60592
G1 X123.794 Y132.615 E47.60805
G1 X123.784 Y132.626 E47.60983
G1 X123.61 Y132.817 E47.64084
G1 X123.596 Y132.832 E47.6433
G1 X123.585 Y132.848 E47.64563
G1 X123.373 Y133.134 E47.68835
G1 X123.224 Y133.396 E47.72452
G1 X123.218 Y133.409 E47.72623
G1 X123.116 Y133.626 E47.75501
G1 X123.108 Y133.642 E47.75715
G1 X123.103 Y133.657 E47.75905
G1 X123.017 Y133.89 E47.78886
G1 X123.01 Y133.908 E47.79117
G1 X123.006 Y133.925 E47.79327
G1 X122.943 Y134.165 E47.82304
G1 X122.938 Y134.181 E47.82506
G1 X122.936 Y134.196 E47.82687
G1 X122.894 Y134.432 E47.85564
G1 X122.89 Y134.451 E47.85797
G1 X122.889 Y134.467 E47.85989
G1 X122.867 Y134.711 E47.88929
G1 X122.865 Y134.73 E47.89158
G1 X122.865 Y134.748 E47.89374
G1 X122.865 Y134.996 E47.9235
G1 X122.865 Y135.014 E47.92566
G1 X122.89 Y135.293 E47.95928
G1 X122.938 Y135.567 E47.99266
G1 X123.02 Y135.873 E48.03067
G1 X123.204 Y136.318 E48.08846
G1 X123.365 Y136.593 E48.1267
G1 X123.524 Y136.824 E48.16035
G1 X123.699 Y137.028 E48.1926
G1 X123.709 Y137.039 E48.19439
G1 X123.718 Y137.048 E48.19591
G1 X123.899 Y137.229 E48.22663
G1 X124.1 Y137.399 E48.25822
G1 X124.113 Y137.411 E48.26034
G1 X124.128 Y137.421 E48.26251
G1 X124.331 Y137.563 E48.29223
G1 X124.346 Y137.574 E48.29447
G1 X124.584 Y137.711 E48.32742
G1 X124.598 Y137.717 E48.32925
G1 X124.822 Y137.822 E48.35894
G1 X124.84 Y137.831 E48.36135
G1 X125.087 Y137.92 E48.39286
G1 X125.103 Y137.926 E48.39491
G1 X125.369 Y137.998 E48.42797
G1 X125.627 Y138.043 E48.4594
G1 X125.643 Y138.046 E48.46136
G1 X125.659 Y138.047 E48.46328
G1 X125.903 Y138.069 E48.49268
G1 X125.922 Y138.071 E48.49497
G1 X125.94 Y138.071 E48.49713
G1 X126.188 Y138.071 E48.52689
G1 X126.206 Y138.071 E48.52905
G1 X126.481 Y138.046 E48.56219
G1 X126.791 Y137.994 E48.59991
G1 X127.257 Y137.845 E48.65862
G1 X127.278 Y137.835 E48.66141
G1 X127.543 Y137.712 E48.69647
G1 X127.556 Y137.704 E48.6983
G1 X127.783 Y137.574 E48.72969
G1 X128.016 Y137.411 E48.76381
G1 X128.219 Y137.237 E48.79589
G1 X128.229 Y137.228 E48.79751
G1 X128.239 Y137.218 E48.79921
G1 X128.408 Y137.05 E48.8278
G1 X128.419 Y137.039 E48.82967
G1 X128.428 Y137.028 E48.83137
G1 X128.591 Y136.838 E48.86141
G1 X128.605 Y136.822 E48.86397
G1 X128.616 Y136.806 E48.8663
G1 X128.756 Y136.603 E48.89589
G1 X128.767 Y136.588 E48.89812
G1 X128.774 Y136.575 E48.89989
G1 X128.896 Y136.362 E48.92935
G1 X128.904 Y136.348 E48.93128
G1 X128.91 Y136.334 E48.93311
G1 X129.012 Y136.115 E48.9621
G1 X129.02 Y136.099 E48.96425
G1 X129.025 Y136.085 E48.96603
G1 X129.11 Y135.856 E48.99534
G1 X129.118 Y135.837 E48.99782
G1 X129.122 Y135.819 E49.00003
G1 X129.185 Y135.579 E49.0298
G1 X129.19 Y135.563 E49.03182
G1 X129.192 Y135.548 E49.03363
G1 X129.234 Y135.312 E49.0624
G1 X129.238 Y135.293 E49.06473
G1 X129.239 Y135.277 E49.06665
G1 X129.261 Y135.033 E49.09605
G1 X129.263 Y135.014 E49.09834
G1 X129.263 Y134.996 E49.1005
G1 X129.263 Y134.748 E49.13026
G1 X129.263 Y134.73 E49.13242
G1 X129.238 Y134.451 E49.16604
G1 X129.19 Y134.181 E49.19894
G1 X129.186 Y134.166 E49.20081
G1 X129.118 Y133.908 E49.23282
G1 X129.026 Y133.658 E49.26479
G1 X129.02 Y133.642 E49.26684
G1 X129.013 Y133.627 E49.26883
G1 X128.904 Y133.396 E49.29948
G1 X128.764 Y133.154 E49.33303
G1 X128.753 Y133.134 E49.33577
G1 X128.74 Y133.117 E49.33834
G1 X128.539 Y132.844 E49.37902
G1 X128.527 Y132.827 E49.38151
G1 X128.341 Y132.622 E49.41473
G1 X128.328 Y132.608 E49.41702
G1 X128.314 Y132.596 E49.41924
G1 X128.13 Y132.429 E49.44905
G1 X128.117 Y132.417 E49.45118
G1 X128.105 Y132.408 E49.45298
G1 X127.91 Y132.258 E49.4825
G1 X127.894 Y132.246 E49.4849
G1 X127.882 Y132.238 E49.48663
G1 X127.662 Y132.097 E49.51799
G1 X127.424 Y131.974 E49.55014
G1 X127.409 Y131.966 E49.55218
G1 X127.393 Y131.96 E49.55423
G1 X127.179 Y131.872 E49.58199
G1 X127.409 Y131.872
G1 X127.662 Y131.872
G1 X127.894 Y131.872 E49.59417
G1 X154.264 Y131.872 E52.75857
G1 X154.264 Y193.072 E60.10257
G1 X127.543 Y193.072 E63.30909
G1 X127.257 Y193.072 E63.34341
G1 X126.791 Y193.072 E63.39933
G1 X126.481 Y193.072 E63.43653
G1 X126.206 Y193.072 E63.46953
G1 X125.922 Y193.072 E63.50361
G1 X125.643 Y193.072 E63.53709
G1 X125.369 Y193.072 E63.56997
G1 X125.103 Y193.072 E63.60189
G1 X124.84 Y193.072 E63.63345
G1 X124.584 Y193.072 E63.66417
G0 F9000 X124.974 Y192.452
G1 F1800 X124.993 Y192.461 E63.66669
G1 X125.207 Y192.538 E63.69398
G1 X125.223 Y192.544 E63.69603
G1 X125.456 Y192.607 E63.725
G1 X125.681 Y192.646 E63.7524
G1 X125.696 Y192.649 E63.75424
G1 X125.713 Y192.65 E63.75628
G1 X125.922 Y192.669 E63.78146
G1 X125.94 Y192.671 E63.78364
G1 X125.958 Y192.671 E63.7858
G1 X126.17 Y192.671 E63.81124
G1 X126.188 Y192.671 E63.8134
G1 X126.43 Y192.649 E63.84256
G1 X126.697 Y192.604 E63.87505
G1 X127.111 Y192.472 E63.92719
G1 X127.133 Y192.462 E63.93009
G1 X127.358 Y192.357 E63.95989
G1 X127.371 Y192.349 E63.96172
G1 X127.568 Y192.236 E63.98897
G1 X127.771 Y192.094 E64.0187
G1 X127.946 Y191.944 E64.04636
G1 X127.958 Y191.934 E64.04823
G1 X127.968 Y191.924 E64.04993
G1 X128.126 Y191.767 E64.07666
G1 X128.135 Y191.756 E64.07837
G1 X128.288 Y191.578 E64.10653
G1 X128.428 Y191.375 E64.13612
G1 X128.549 Y191.164 E64.16531
G1 X128.556 Y191.149 E64.1673
G1 X128.643 Y190.961 E64.19216
G1 X128.651 Y190.945 E64.1943
G1 X128.656 Y190.931 E64.19609
G1 X128.729 Y190.735 E64.22118
G1 X128.736 Y190.716 E64.22361
G1 X128.74 Y190.699 E64.22571
G1 X128.794 Y190.493 E64.25127
G1 X128.799 Y190.477 E64.25328
G1 X128.801 Y190.462 E64.25509
G1 X128.837 Y190.258 E64.27995
G1 X128.841 Y190.24 E64.28216
G1 X128.842 Y190.223 E64.28421
G1 X128.861 Y190.014 E64.30939
G1 X128.863 Y189.996 E64.31156
G1 X128.863 Y189.978 E64.31372
G1 X128.863 Y189.766 E64.33916
G1 X128.863 Y189.748 E64.34132
G1 X128.841 Y189.504 E64.37072
G1 X128.799 Y189.267 E64.39961
G1 X128.795 Y189.252 E64.40147
G1 X128.736 Y189.028 E64.42927
G1 X128.651 Y188.797 E64.4588
G1 X128.644 Y188.782 E64.46079
G1 X128.549 Y188.581 E64.48747
G1 X128.429 Y188.37 E64.5166
G1 X128.286 Y188.166 E64.54649
G1 X128.274 Y188.152 E64.5487
G1 X128.137 Y187.991 E64.57407
G1 X128.126 Y187.978 E64.57612
G1 X128.115 Y187.967 E64.57798
G1 X127.971 Y187.823 E64.60242
G1 X127.958 Y187.81 E64.60463
G1 X127.947 Y187.801 E64.60633
G1 X127.785 Y187.663 E64.63187
G1 X127.77 Y187.65 E64.63425
G1 X127.757 Y187.641 E64.63615
G1 X127.566 Y187.507 E64.66415
G1 X127.355 Y187.387 E64.69327
G1 X127.342 Y187.381 E64.69499
G1 X127.155 Y187.293 E64.71979
G1 X127.139 Y187.285 E64.72194
G1 X127.123 Y187.279 E64.72399
G1 X126.927 Y187.207 E64.74905
G1 X126.908 Y187.2 E64.75148
G1 X126.891 Y187.196 E64.75357
G1 X126.685 Y187.142 E64.77913
G1 X126.669 Y187.137 E64.78114
G1 X126.654 Y187.135 E64.78296
G1 X126.45 Y187.099 E64.80781
G1 X126.432 Y187.095 E64.81003
G1 X126.415 Y187.094 E64.81207
G1 X126.206 Y187.075 E64.83725
G1 X126.188 Y187.073 E64.83943
G1 X126.17 Y187.073 E64.84159
G1 X125.958 Y187.073 E64.86703
G1 X125.94 Y187.073 E64.86919
G1 X125.696 Y187.095 E64.89859
G1 X125.459 Y187.137 E64.92747
G1 X125.444 Y187.141 E64.92933
G1 X125.22 Y187.2 E64.95713
G1 X124.989 Y187.285 E64.98667
G1 X124.974 Y187.292 E64.98865
G1 X124.773 Y187.387 E65.01533
G1 X124.562 Y187.507 E65.04446
G1 X124.358 Y187.65 E65.07435
G1 X124.344 Y187.662 E65.07657
G1 X124.183 Y187.799 E65.10193
G1 X124.17 Y187.81 E65.10398
G1 X124.159 Y187.821 E65.10584
G1 X124.015 Y187.965 E65.13028
G1 X124.002 Y187.978 E65.13249
G1 X123.993 Y187.989 E65.13419
G1 X123.855 Y188.151 E65.15973
G1 X123.842 Y188.166 E65.16211
G1 X123.833 Y188.179 E65.16401
G1 X123.699 Y188.37 E65.19201
G1 X123.579 Y188.581 E65.22114
G1 X123.573 Y188.594 E65.22286
G1 X123.485 Y188.781 E65.24766
G1 X123.477 Y188.797 E65.2498
G1 X123.471 Y188.813 E65.25185
G1 X123.399 Y189.009 E65.27691
G1 X123.392 Y189.028 E65.27934
G1 X123.388 Y189.045 E65.28144
G1 X123.334 Y189.251 E65.30699
G1 X123.329 Y189.267 E65.309
G1 X123.327 Y189.282 E65.31082
G1 X123.291 Y189.486 E65.33568
G1 X123.287 Y189.504 E65.33789
G1 X123.286 Y189.521 E65.33993
G1 X123.267 Y189.73 E65.36512
G1 X123.265 Y189.748 E65.36729
G1 X123.265 Y189.766 E65.36945
G1 X123.265 Y189.978 E65.39489
G1 X123.265 Y189.996 E65.39705
G1 X123.287 Y190.24 E65.42645
G1 X123.329 Y190.48 E65.45569
G1 X123.4 Y190.744 E65.48849
G1 X123.563 Y191.14 E65.53988
G1 X123.577 Y191.164 E65.54321
G1 X123.695 Y191.365 E65.57118
G1 X123.703 Y191.378 E65.57301
G1 X123.71 Y191.388 E65.57448
G1 X123.83 Y191.562 E65.59984
G1 X123.842 Y191.58 E65.60244
G1 X124.002 Y191.767 E65.63197
G1 X124.16 Y191.924 E65.6587
G1 X124.17 Y191.934 E65.6604
G1 X124.181 Y191.943 E65.6621
G1 X124.343 Y192.081 E65.68764
G1 X124.358 Y192.094 E65.69002
G1 X124.372 Y192.104 E65.69209
G1 X124.561 Y192.236 E65.71975
G1 X124.754 Y192.347 E65.74647
G1 X124.769 Y192.356 E65.74857
G1 X124.783 Y192.362 E65.7504
G1 X124.974 Y192.452 E65.77573
G0 F9000 X125.146 Y192.091
G1 F1800 X125.343 Y192.162 E65.80086
G1 X125.543 Y192.216 E65.82572
G1 X125.749 Y192.252 E65.85081
G1 X125.958 Y192.271 E65.876
G1 X126.17 Y192.271 E65.90144
G1 X126.378 Y192.252 E65.9265
G1 X126.603 Y192.214 E65.95388
G1 X126.965 Y192.099 E65.99946
G1 X127.173 Y192.002 E66.027
G1 X127.353 Y191.898 E66.05195
G1 X127.526 Y191.777 E66.07728
G1 X127.687 Y191.64 E66.10265
G1 X127.832 Y191.495 E66.12726
G1 X127.97 Y191.334 E66.15271
G1 X128.089 Y191.161 E66.1779
G1 X128.194 Y190.979 E66.20312
G1 X128.282 Y190.791 E66.22803
G1 X128.354 Y190.596 E66.25297
G1 X128.408 Y190.391 E66.27841
G1 X128.444 Y190.187 E66.30327
G1 X128.463 Y189.978 E66.32845
G1 X128.463 Y189.766 E66.35389
G1 X128.444 Y189.557 E66.37907
G1 X128.408 Y189.353 E66.40393
G1 X128.354 Y189.148 E66.42937
G1 X128.282 Y188.952 E66.45443
G1 X128.194 Y188.766 E66.47912
G1 X128.09 Y188.584 E66.50427
G1 X127.969 Y188.41 E66.52971
G1 X127.832 Y188.249 E66.55508
G1 X127.687 Y188.104 E66.57968
G1 X127.526 Y187.967 E66.60505
G1 X127.352 Y187.846 E66.63048
G1 X127.17 Y187.742 E66.65564
G1 X126.984 Y187.654 E66.68033
G1 X126.788 Y187.582 E66.70539
G1 X126.583 Y187.528 E66.73083
G1 X126.379 Y187.492 E66.75568
G1 X126.17 Y187.473 E66.78087
G1 X125.958 Y187.473 E66.80631
G1 X125.749 Y187.492 E66.83149
G1 X125.545 Y187.528 E66.85635
G1 X125.34 Y187.582 E66.88179
G1 X125.144 Y187.654 E66.90684
G1 X124.958 Y187.742 E66.93154
G1 X124.776 Y187.846 E66.95669
G1 X124.602 Y187.967 E66.98212
G1 X124.441 Y188.104 E67.00749
G1 X124.296 Y188.249 E67.0321
G1 X124.159 Y188.41 E67.05747
G1 X124.038 Y188.584 E67.0829
G1 X123.934 Y188.766 E67.10805
G1 X123.846 Y188.952 E67.13275
G1 X123.774 Y189.148 E67.1578
G1 X123.72 Y189.353 E67.18324
G1 X123.684 Y189.557 E67.2081
G1 X123.665 Y189.766 E67.23328
G1 X123.665 Y189.978 E67.25872
G1 X123.684 Y190.187 E67.28391
G1 X123.72 Y190.393 E67.309
G1 X123.78 Y190.616 E67.33671
G1 X123.922 Y190.962 E67.38159
G1 X124.04 Y191.163 E67.40956
G1 X124.159 Y191.335 E67.43466
G1 X124.296 Y191.495 E67.45994
G1 X124.441 Y191.64 E67.48454
G1 X124.602 Y191.777 E67.50991
G1 X124.776 Y191.898 E67.53535
G1 X124.954 Y192.001 E67.56002
G1 X125.146 Y192.091 E67.58547
G0 F9000 X124.282 Y190.785
;TYPE:WALL-OUTER
G1 F1800 X124.377 Y190.948 E67.60811
G1 X124.476 Y191.09 E67.62888
G1 X124.59 Y191.224 E67.64999
G1 X124.712 Y191.346 E67.6707
G1 X124.846 Y191.46 E67.69181
G1 X124.99 Y191.56 E67.71285
G1 X125.139 Y191.646 E67.73349
G1 X125.299 Y191.721 E67.7547
G1 X125.463 Y191.78 E67.77561
G1 X125.63 Y191.825 E67.79637
G1 X125.802 Y191.855 E67.81732
G1 X125.976 Y191.871 E67.83829
G1 X126.152 Y191.871 E67.85941
G1 X126.326 Y191.855 E67.88037
G1 X126.509 Y191.824 E67.90265
G1 X126.819 Y191.726 E67.94166
G1 X126.988 Y191.647 E67.96405
G1 X127.138 Y191.56 E67.98486
G1 X127.282 Y191.46 E68.00589
G1 X127.416 Y191.346 E68.02701
G1 X127.538 Y191.224 E68.04771
G1 X127.652 Y191.09 E68.06882
G1 X127.751 Y190.947 E68.08969
G1 X127.839 Y190.795 E68.11077
G1 X127.912 Y190.637 E68.13165
G1 X127.972 Y190.475 E68.15239
G1 X128.017 Y190.305 E68.17349
G1 X128.047 Y190.134 E68.19432
G1 X128.063 Y189.96 E68.21529
G1 X128.063 Y189.784 E68.23641
G1 X128.047 Y189.61 E68.25738
G1 X128.017 Y189.439 E68.27821
G1 X127.972 Y189.269 E68.29931
G1 X127.912 Y189.106 E68.32016
G1 X127.839 Y188.95 E68.34082
G1 X127.752 Y188.798 E68.36184
G1 X127.652 Y188.654 E68.38288
G1 X127.538 Y188.52 E68.40399
G1 X127.416 Y188.398 E68.4247
G1 X127.282 Y188.284 E68.44581
G1 X127.138 Y188.184 E68.46684
G1 X126.986 Y188.097 E68.48786
G1 X126.83 Y188.024 E68.50853
G1 X126.667 Y187.964 E68.52937
G1 X126.497 Y187.919 E68.55048
G1 X126.326 Y187.889 E68.57131
G1 X126.152 Y187.873 E68.59228
G1 X125.976 Y187.873 E68.6134
G1 X125.802 Y187.889 E68.63436
G1 X125.631 Y187.919 E68.6552
G1 X125.461 Y187.964 E68.6763
G1 X125.298 Y188.024 E68.69714
G1 X125.142 Y188.097 E68.71781
G1 X124.99 Y188.184 E68.73883
G1 X124.846 Y188.284 E68.75987
G1 X124.712 Y188.398 E68.78098
G1 X124.59 Y188.52 E68.80168
G1 X124.476 Y188.654 E68.82279
G1 X124.376 Y188.798 E68.84383
G1 X124.289 Y188.95 E68.86485
G1 X124.216 Y189.106 E68.88552
G1 X124.156 Y189.269 E68.90636
G1 X124.111 Y189.439 E68.92746
G1 X124.081 Y189.61 E68.9483
G1 X124.065 Y189.784 E68.96926
G1 X124.065 Y189.96 E68.99038
G1 X124.081 Y190.134 E69.01135
G1 X124.111 Y190.306 E69.0323
G1 X124.16 Y190.487 E69.05481
G1 X124.282 Y190.785 E69.09345
G0 F9000 X124.377 Y190.948
G0 X124.476 Y191.09
G0 X124.501 Y191.119
G0 X124.164 Y191.405
G0 X124.119 Y191.442
G0 X123.681 Y190.401
G0 X123.645 Y189.552
G0 X123.645 Y134.552
G0 X123.873 Y133.829
G0 X124.872 Y132.33
;TYPE:WALL-INNER
G1 F1800 X124.495 Y132.553 E69.14601
G1 X124.475 Y132.565 E69.14881
G1 X124.277 Y132.717 E69.17876
G1 X124.262 Y132.728 E69.18099
G1 X124.249 Y132.74 E69.18312
G1 X124.093 Y132.884 E69.20859
G1 X124.078 Y132.897 E69.21097
G1 X124.067 Y132.909 E69.21293
G1 X123.921 Y133.07 E69.23901
G1 X123.906 Y133.086 E69.24164
G1 X123.895 Y133.102 E69.24397
G1 X123.709 Y133.353 E69.28146
G1 X123.579 Y133.581 E69.31295
G1 X123.573 Y133.594 E69.31467
G1 X123.485 Y133.781 E69.33947
G1 X123.477 Y133.797 E69.34162
G1 X123.471 Y133.813 E69.34367
G1 X123.399 Y134.009 E69.36873
G1 X123.392 Y134.028 E69.37116
G1 X123.388 Y134.045 E69.37325
G1 X123.334 Y134.251 E69.39881
G1 X123.329 Y134.267 E69.40082
