;FLAVOR:UltiGCode
;TIME:8291
;MATERIAL:20510
;MATERIAL2:0
;NOZZLE_DIAMETER:0.4
;Generated with Cura_SteamEngine 3.2.1
M82 ;absolute extrusion mode

;LAYER_COUNT:78
;LAYER:0
M107
G0 F12000 X94.609 Y120.68 Z0.3
;TYPE:SKIRT
G1 F1800 X95.042 Y120.419 E0.06067
G1 X95.51 Y120.229 E0.12128
G1 X96.003 Y120.116 E0.18198
G1 X96.473 Y120.081 E0.23853
G1 X155.655 Y120.082 E7.34037
G1 X156.159 Y120.122 E7.40104
G1 X156.65 Y120.241 E7.46167
G1 X157.117 Y120.436 E7.5224
G1 X157.547 Y120.701 E7.58301
G1 X157.93 Y121.031 E7.64368
G1 X158.256 Y121.418 E7.7044
G1 X158.517 Y121.851 E7.76507
G1 X158.707 Y122.319 E7.82568
G1 X158.82 Y122.812 E7.88637
G1 X158.855 Y123.282 E7.94293
G1 X158.855 Y194.463 E16.48465
G1 X158.815 Y194.967 E16.54532
G1 X158.696 Y195.458 E16.60594
G1 X158.502 Y195.925 E16.66663
G1 X158.236 Y196.355 E16.7273
G1 X157.906 Y196.738 E16.78797
G1 X157.519 Y197.064 E16.84869
G1 X157.086 Y197.325 E16.90936
G1 X156.618 Y197.515 E16.96997
G1 X156.125 Y197.628 E17.03067
G1 X155.655 Y197.663 E17.08722
G1 X96.473 Y197.663 E24.18906
G1 X95.969 Y197.623 E24.24973
G1 X95.478 Y197.504 E24.31036
G1 X95.011 Y197.31 E24.37104
G1 X94.581 Y197.044 E24.43172
G1 X94.198 Y196.714 E24.49238
G1 X93.872 Y196.327 E24.5531
G1 X93.611 Y195.894 E24.61377
G1 X93.421 Y195.426 E24.67439
G1 X93.308 Y194.933 E24.73508
G1 X93.273 Y194.463 E24.79164
G1 X93.273 Y123.281 E33.33348
G1 X93.313 Y122.777 E33.39415
G1 X93.432 Y122.286 E33.45477
G1 X93.626 Y121.819 E33.51545
G1 X93.892 Y121.389 E33.57613
G1 X94.222 Y121.006 E33.6368
G1 X94.609 Y120.68 E33.69752
G10
G0 F12000 X95.768 Y131.086
G0 X97.078 Y131.086
G0 X124.584 Y193.072
;TYPE:WALL-INNER
G11
G1 F1800 X97.864 Y193.072 E36.90392
G1 X97.864 Y131.872 E44.24792
G1 X124.218 Y131.872 E47.4104
G1 X124.667 Y131.872 E47.46428
G1 X124.948 Y131.872 E47.498
G1 X124.95 Y131.872 E47.49824
G1 X124.667 Y131.989 E47.5258
G1 X124.247 Y132.234 E47.56249
G1 X124.218 Y132.251 E47.56652
G1 X123.841 Y132.568 E47.62563
G1 X123.821 Y132.585 E47.62878
G1 X123.805 Y132.603 E47.63167
G1 X123.595 Y132.831 E47.66887
G1 X123.583 Y132.848 E47.67136
G1 X123.371 Y133.138 E47.71447
G1 X123.361 Y133.157 E47.71705
G1 X123.223 Y133.397 E47.75027
G1 X123.217 Y133.411 E47.7521
G1 X123.115 Y133.628 E47.78087
G1 X123.107 Y133.644 E47.78302
G1 X123.102 Y133.659 E47.78491
G1 X123.017 Y133.89 E47.81445
G1 X123.01 Y133.908 E47.81677
G1 X123.006 Y133.925 E47.81886
G1 X122.943 Y134.165 E47.84864
G1 X122.938 Y134.181 E47.85065
G1 X122.936 Y134.196 E47.85247
G1 X122.894 Y134.432 E47.88123
G1 X122.89 Y134.451 E47.88356
G1 X122.889 Y134.467 E47.88549
G1 X122.867 Y134.711 E47.91488
G1 X122.865 Y134.73 E47.91718
G1 X122.865 Y134.748 E47.91934
G1 X122.865 Y134.996 E47.9491
G1 X122.865 Y135.014 E47.95126
G1 X122.89 Y135.293 E47.98487
G1 X122.938 Y135.567 E48.01825
G1 X123.02 Y135.873 E48.05627
G1 X123.204 Y136.318 E48.11405
G1 X123.365 Y136.593 E48.15229
G1 X123.524 Y136.824 E48.18594
G1 X123.699 Y137.028 E48.2182
G1 X123.709 Y137.039 E48.21998
G1 X123.718 Y137.048 E48.22151
G1 X123.899 Y137.229 E48.25223
G1 X124.1 Y137.399 E48.28382
G1 X124.113 Y137.411 E48.28594
G1 X124.128 Y137.421 E48.2881
G1 X124.331 Y137.563 E48.31783
G1 X124.346 Y137.574 E48.32006
G1 X124.584 Y137.711 E48.35302
G1 X124.598 Y137.717 E48.35484
G1 X124.822 Y137.822 E48.38453
G1 X124.84 Y137.831 E48.38694
G1 X125.087 Y137.92 E48.41845
G1 X125.103 Y137.926 E48.4205
G1 X125.369 Y137.998 E48.45357
G1 X125.627 Y138.043 E48.485
G1 X125.643 Y138.046 E48.48695
G1 X125.659 Y138.047 E48.48887
G1 X125.903 Y138.069 E48.51827
G1 X125.922 Y138.071 E48.52057
G1 X125.94 Y138.071 E48.52273
G1 X126.188 Y138.071 E48.55249
G1 X126.206 Y138.071 E48.55465
G1 X126.481 Y138.046 E48.58778
G1 X126.791 Y137.994 E48.6255
G1 X127.257 Y137.845 E48.68421
G1 X127.278 Y137.835 E48.687
G1 X127.543 Y137.712 E48.72206
G1 X127.556 Y137.704 E48.72389
G1 X127.783 Y137.574 E48.75528
G1 X128.016 Y137.411 E48.78941
G1 X128.219 Y137.237 E48.82149
G1 X128.229 Y137.228 E48.8231
G1 X128.239 Y137.218 E48.8248
G1 X128.408 Y137.05 E48.8534
G1 X128.419 Y137.039 E48.85526
G1 X128.428 Y137.028 E48.85697
G1 X128.591 Y136.838 E48.88701
G1 X128.605 Y136.822 E48.88956
G1 X128.616 Y136.806 E48.89189
G1 X128.756 Y136.603 E48.92148
G1 X128.767 Y136.588 E48.92371
G1 X128.774 Y136.575 E48.92549
G1 X128.896 Y136.362 E48.95494
G1 X128.904 Y136.348 E48.95688
G1 X128.91 Y136.334 E48.9587
G1 X129.012 Y136.115 E48.98769
G1 X129.02 Y136.099 E48.98984
G1 X129.025 Y136.085 E48.99163
G1 X129.11 Y135.856 E49.02094
G1 X129.118 Y135.837 E49.02341
G1 X129.122 Y135.819 E49.02562
G1 X129.185 Y135.579 E49.0554
G1 X129.19 Y135.563 E49.05741
G1 X129.192 Y135.548 E49.05923
G1 X129.234 Y135.312 E49.08799
G1 X129.238 Y135.293 E49.09032
G1 X129.239 Y135.277 E49.09225
G1 X129.261 Y135.033 E49.12164
G1 X129.263 Y135.014 E49.12394
G1 X129.263 Y134.996 E49.1261
G1 X129.263 Y134.748 E49.15586
G1 X129.263 Y134.73 E49.15802
G1 X129.238 Y134.451 E49.19163
G1 X129.19 Y134.181 E49.22454
G1 X129.186 Y134.166 E49.2264
G1 X129.118 Y133.908 E49.25842
G1 X129.022 Y133.644 E49.29213
G1 X128.912 Y133.411 E49.32305
G1 X128.905 Y133.396 E49.32503
G1 X128.753 Y133.131 E49.36169
G1 X128.738 Y133.111 E49.36469
G1 X128.535 Y132.84 E49.40533
G1 X128.524 Y132.826 E49.40746
G1 X128.512 Y132.813 E49.40959
G1 X128.325 Y132.605 E49.44315
G1 X128.311 Y132.593 E49.44536
G1 X128.126 Y132.425 E49.47535
G1 X128.114 Y132.414 E49.4773
G1 X128.102 Y132.405 E49.4791
G1 X127.888 Y132.24 E49.51153
G1 X127.866 Y132.223 E49.51487
G1 X127.843 Y132.21 E49.51804
G1 X127.462 Y131.991 E49.57077
G1 X127.436 Y131.976 E49.57437
G1 X127.41 Y131.966 E49.57772
G1 X127.175 Y131.872 E49.60809
G1 X127.436 Y131.872
G1 X127.866 Y131.872 E49.63821
G1 X154.264 Y131.872 E52.80597
G1 X154.264 Y193.072 E60.14997
G1 X127.543 Y193.072 E63.35649
G1 X127.257 Y193.072 E63.39081
G1 X126.791 Y193.072 E63.44673
G1 X126.481 Y193.072 E63.48393
G1 X126.206 Y193.072 E63.51693
G1 X125.922 Y193.072 E63.55101
G1 X125.643 Y193.072 E63.58449
G1 X125.369 Y193.072 E63.61737
G1 X125.103 Y193.072 E63.64929
G1 X124.84 Y193.072 E63.68085
G1 X124.584 Y193.072 E63.71157
G0 F12000 X124.974 Y192.452
G1 F1800 X124.993 Y192.461 E63.71409
G1 X125.207 Y192.538 E63.74138
G1 X125.223 Y192.544 E63.74343
G1 X125.456 Y192.607 E63.7724
G1 X125.681 Y192.646 E63.7998
G1 X125.696 Y192.649 E63.80163
G1 X125.713 Y192.65 E63.80368
G1 X125.922 Y192.669 E63.82886
G1 X125.94 Y192.671 E63.83103
G1 X125.958 Y192.671 E63.83319
G1 X126.17 Y192.671 E63.85863
G1 X126.188 Y192.671 E63.86079
G1 X126.43 Y192.649 E63.88995
G1 X126.697 Y192.604 E63.92245
G1 X127.111 Y192.472 E63.97459
G1 X127.133 Y192.462 E63.97749
G1 X127.358 Y192.357 E64.00728
G1 X127.371 Y192.349 E64.00912
G1 X127.568 Y192.236 E64.03637
G1 X127.771 Y192.094 E64.0661
G1 X127.946 Y191.944 E64.09376
G1 X127.958 Y191.934 E64.09563
G1 X127.968 Y191.924 E64.09733
G1 X128.126 Y191.767 E64.12406
G1 X128.135 Y191.756 E64.12576
G1 X128.288 Y191.578 E64.15393
G1 X128.428 Y191.375 E64.18352
G1 X128.549 Y191.164 E64.21271
G1 X128.556 Y191.149 E64.21469
G1 X128.643 Y190.961 E64.23955
G1 X128.651 Y190.945 E64.2417
G1 X128.656 Y190.931 E64.24348
G1 X128.729 Y190.735 E64.26858
G1 X128.736 Y190.716 E64.27101
G1 X128.74 Y190.699 E64.27311
G1 X128.794 Y190.493 E64.29866
G1 X128.799 Y190.477 E64.30067
G1 X128.801 Y190.462 E64.30249
G1 X128.837 Y190.258 E64.32735
G1 X128.841 Y190.24 E64.32956
G1 X128.842 Y190.223 E64.3316
G1 X128.861 Y190.014 E64.35679
G1 X128.863 Y189.996 E64.35896
G1 X128.863 Y189.978 E64.36112
G1 X128.863 Y189.766 E64.38656
G1 X128.863 Y189.748 E64.38872
G1 X128.841 Y189.504 E64.41812
G1 X128.799 Y189.267 E64.447
G1 X128.795 Y189.252 E64.44887
G1 X128.736 Y189.028 E64.47666
G1 X128.651 Y188.797 E64.5062
G1 X128.644 Y188.782 E64.50819
G1 X128.549 Y188.581 E64.53486
G1 X128.429 Y188.37 E64.56399
G1 X128.286 Y188.166 E64.59389
G1 X128.274 Y188.152 E64.5961
G1 X128.137 Y187.991 E64.62147
G1 X128.126 Y187.978 E64.62351
G1 X128.115 Y187.967 E64.62538
G1 X127.971 Y187.823 E64.64982
G1 X127.958 Y187.81 E64.65202
G1 X127.947 Y187.801 E64.65373
G1 X127.785 Y187.663 E64.67927
G1 X127.77 Y187.65 E64.68165
G1 X127.757 Y187.641 E64.68355
G1 X127.566 Y187.507 E64.71154
G1 X127.355 Y187.387 E64.74067
G1 X127.342 Y187.381 E64.74239
G1 X127.155 Y187.293 E64.76719
G1 X127.139 Y187.285 E64.76934
G1 X127.123 Y187.279 E64.77139
G1 X126.927 Y187.207 E64.79644
G1 X126.908 Y187.2 E64.79887
G1 X126.891 Y187.196 E64.80097
G1 X126.685 Y187.142 E64.82652
G1 X126.669 Y187.137 E64.82854
G1 X126.654 Y187.135 E64.83035
G1 X126.45 Y187.099 E64.85521
G1 X126.432 Y187.095 E64.85742
G1 X126.415 Y187.094 E64.85947
G1 X126.206 Y187.075 E64.88465
G1 X126.188 Y187.073 E64.88682
G1 X126.17 Y187.073 E64.88898
G1 X125.958 Y187.073 E64.91442
G1 X125.94 Y187.073 E64.91658
G1 X125.696 Y187.095 E64.94598
G1 X125.459 Y187.137 E64.97487
G1 X125.444 Y187.141 E64.97673
G1 X125.22 Y187.2 E65.00453
G1 X124.989 Y187.285 E65.03406
G1 X124.974 Y187.292 E65.03605
G1 X124.773 Y187.387 E65.06273
G1 X124.562 Y187.507 E65.09186
G1 X124.358 Y187.65 E65.12175
G1 X124.344 Y187.662 E65.12396
G1 X124.183 Y187.799 E65.14933
G1 X124.17 Y187.81 E65.15137
G1 X124.159 Y187.821 E65.15324
G1 X124.015 Y187.965 E65.17768
G1 X124.002 Y187.978 E65.17989
G1 X123.993 Y187.989 E65.18159
G1 X123.855 Y188.151 E65.20713
G1 X123.842 Y188.166 E65.20951
G1 X123.833 Y188.179 E65.21141
G1 X123.699 Y188.37 E65.23941
G1 X123.579 Y188.581 E65.26853
G1 X123.573 Y188.594 E65.27025
G1 X123.485 Y188.781 E65.29505
G1 X123.477 Y188.797 E65.2972
G1 X123.471 Y188.813 E65.29925
G1 X123.399 Y189.009 E65.32431
G1 X123.392 Y189.028 E65.32674
G1 X123.388 Y189.045 E65.32883
G1 X123.334 Y189.251 E65.35439
G1 X123.329 Y189.267 E65.3564
G1 X123.327 Y189.282 E65.35821
G1 X123.291 Y189.486 E65.38307
G1 X123.287 Y189.504 E65.38529
G1 X123.286 Y189.521 E65.38733
G1 X123.267 Y189.73 E65.41251
G1 X123.265 Y189.748 E65.41469
G1 X123.265 Y189.766 E65.41685
G1 X123.265 Y189.978 E65.44229
G1 X123.265 Y189.996 E65.44445
G1 X123.287 Y190.24 E65.47384
G1 X123.329 Y190.48 E65.50308
G1 X123.4 Y190.744 E65.53589
G1 X123.563 Y191.14 E65.58728
G1 X123.577 Y191.164 E65.59061
G1 X123.695 Y191.365 E65.61858
G1 X123.703 Y191.378 E65.62041
G1 X123.71 Y191.388 E65.62188
G1 X123.83 Y191.562 E65.64724
G1 X123.842 Y191.58 E65.64984
G1 X124.002 Y191.767 E65.67937
G1 X124.16 Y191.924 E65.7061
G1 X124.17 Y191.934 E65.70779
G1 X124.181 Y191.943 E65.7095
G1 X124.343 Y192.081 E65.73504
G1 X124.358 Y192.094 E65.73742
G1 X124.372 Y192.104 E65.73948
G1 X124.561 Y192.236 E65.76715
G1 X124.754 Y192.347 E65.79387
G1 X124.769 Y192.356 E65.79596
G1 X124.783 Y192.362 E65.79779
G1 X124.974 Y192.452 E65.82313
G0 F12000 X125.146 Y192.091
G1 F1800 X125.343 Y192.162 E65.84826
G1 X125.543 Y192.216 E65.87312
G1 X125.749 Y192.252 E65.89821
G1 X125.958 Y192.271 E65.9234
G1 X126.17 Y192.271 E65.94884
G1 X126.378 Y192.252 E65.9739
G1 X126.603 Y192.214 E66.00128
G1 X126.965 Y192.099 E66.04686
G1 X127.173 Y192.002 E66.0744
G1 X127.353 Y191.898 E66.09935
G1 X127.526 Y191.777 E66.12468
G1 X127.687 Y191.64 E66.15005
G1 X127.832 Y191.495 E66.17466
G1 X127.97 Y191.334 E66.2001
G1 X128.089 Y191.161 E66.2253
G1 X128.194 Y190.979 E66.25051
G1 X128.282 Y190.791 E66.27542
G1 X128.354 Y190.596 E66.30037
G1 X128.408 Y190.391 E66.32581
G1 X128.444 Y190.187 E66.35066
G1 X128.463 Y189.978 E66.37585
G1 X128.463 Y189.766 E66.40129
G1 X128.444 Y189.557 E66.42647
G1 X128.408 Y189.353 E66.45133
G1 X128.354 Y189.148 E66.47677
G1 X128.282 Y188.952 E66.50183
G1 X128.194 Y188.766 E66.52652
G1 X128.09 Y188.584 E66.55167
G1 X127.969 Y188.41 E66.5771
G1 X127.832 Y188.249 E66.60247
G1 X127.687 Y188.104 E66.62708
G1 X127.526 Y187.967 E66.65245
G1 X127.352 Y187.846 E66.67788
G1 X127.17 Y187.742 E66.70303
G1 X126.984 Y187.654 E66.72773
G1 X126.788 Y187.582 E66.75278
G1 X126.583 Y187.528 E66.77822
G1 X126.379 Y187.492 E66.80308
G1 X126.17 Y187.473 E66.82826
G1 X125.958 Y187.473 E66.8537
G1 X125.749 Y187.492 E66.87889
G1 X125.545 Y187.528 E66.90375
G1 X125.34 Y187.582 E66.92918
G1 X125.144 Y187.654 E66.95424
G1 X124.958 Y187.742 E66.97893
G1 X124.776 Y187.846 E67.00409
G1 X124.602 Y187.967 E67.02952
G1 X124.441 Y188.104 E67.05489
G1 X124.296 Y188.249 E67.0795
G1 X124.159 Y188.41 E67.10486
G1 X124.038 Y188.584 E67.1303
G1 X123.934 Y188.766 E67.15545
G1 X123.846 Y188.952 E67.18014
G1 X123.774 Y189.148 E67.2052
G1 X123.72 Y189.353 E67.23064
G1 X123.684 Y189.557 E67.2555
G1 X123.665 Y189.766 E67.28068
G1 X123.665 Y189.978 E67.30612
G1 X123.684 Y190.187 E67.3313
G1 X123.72 Y190.393 E67.3564
G1 X123.78 Y190.616 E67.38411
G1 X123.922 Y190.962 E67.42899
G1 X124.04 Y191.163 E67.45696
G1 X124.159 Y191.335 E67.48206
G1 X124.296 Y191.495 E67.50733
G1 X124.441 Y191.64 E67.53194
G1 X124.602 Y191.777 E67.55731
G1 X124.776 Y191.898 E67.58274
G1 X124.954 Y192.001 E67.60742
G1 X125.146 Y192.091 E67.63287
G0 F12000 X124.282 Y190.785
;TYPE:WALL-OUTER
G1 F1800 X124.377 Y190.948 E67.65551
G1 X124.476 Y191.09 E67.67628
G1 X124.59 Y191.224 E67.69739
G1 X124.712 Y191.346 E67.71809
G1 X124.846 Y191.46 E67.73921
G1 X124.99 Y191.56 E67.76024
G1 X125.139 Y191.646 E67.78089
G1 X125.299 Y191.721 E67.80209
G1 X125.463 Y191.78 E67.82301
G1 X125.63 Y191.825 E67.84376
G1 X125.802 Y191.855 E67.86471
G1 X125.976 Y191.871 E67.88568
G1 X126.152 Y191.871 E67.9068
G1 X126.326 Y191.855 E67.92777
G1 X126.509 Y191.824 E67.95004
G1 X126.819 Y191.726 E67.98906
G1 X126.988 Y191.647 E68.01144
G1 X127.138 Y191.56 E68.03225
G1 X127.282 Y191.46 E68.05329
G1 X127.416 Y191.346 E68.0744
G1 X127.538 Y191.224 E68.09511
G1 X127.652 Y191.09 E68.11622
G1 X127.751 Y190.947 E68.13709
G1 X127.839 Y190.795 E68.15817
G1 X127.912 Y190.637 E68.17905
G1 X127.972 Y190.475 E68.19978
G1 X128.017 Y190.305 E68.22088
G1 X128.047 Y190.134 E68.24172
G1 X128.063 Y189.96 E68.26269
G1 X128.063 Y189.784 E68.28381
G1 X128.047 Y189.61 E68.30477
G1 X128.017 Y189.439 E68.32561
G1 X127.972 Y189.269 E68.34671
G1 X127.912 Y189.106 E68.36755
G1 X127.839 Y188.95 E68.38822
G1 X127.752 Y188.798 E68.40924
G1 X127.652 Y188.654 E68.43028
G1 X127.538 Y188.52 E68.45139
G1 X127.416 Y188.398 E68.47209
G1 X127.282 Y188.284 E68.4932
G1 X127.138 Y188.184 E68.51424
G1 X126.986 Y188.097 E68.53526
G1 X126.83 Y188.024 E68.55593
G1 X126.667 Y187.964 E68.57677
G1 X126.497 Y187.919 E68.59787
G1 X126.326 Y187.889 E68.61871
G1 X126.152 Y187.873 E68.63967
G1 X125.976 Y187.873 E68.66079
G1 X125.802 Y187.889 E68.68176
G1 X125.631 Y187.919 E68.7026
G1 X125.461 Y187.964 E68.7237
G1 X125.298 Y188.024 E68.74454
G1 X125.142 Y188.097 E68.76521
G1 X124.99 Y188.184 E68.78623
G1 X124.846 Y188.284 E68.80726
G1 X124.712 Y188.398 E68.82838
G1 X124.59 Y188.52 E68.84908
G1 X124.476 Y188.654 E68.87019
G1 X124.376 Y188.798 E68.89123
G1 X124.289 Y188.95 E68.91225
G1 X124.216 Y189.106 E68.93291
G1 X124.156 Y189.269 E68.95376
G1 X124.111 Y189.439 E68.97486
G1 X124.081 Y189.61 E68.99569
G1 X124.065 Y189.784 E69.01666
G1 X124.065 Y189.96 E69.03778
G1 X124.081 Y190.134 E69.05875
G1 X124.111 Y190.306 E69.0797
G1 X124.16 Y190.487 E69.1022
G1 X124.282 Y190.785 E69.14084
G0 F12000 X124.377 Y190.948
G0 X124.476 Y191.09
G0 X124.501 Y191.119
G0 X124.164 Y191.405
G0 X124.119 Y191.442
G0 X123.681 Y190.401
G0 X123.645 Y189.552
G0 X123.645 Y134.552
G0 X123.849 Y133.902
G0 X124.449 Y132.579
;TYPE:WALL-INNER
G1 F1800 X124.098 Y132.874 E69.19586
G1 X124.082 Y132.892 E69.19875
G1 X123.92 Y133.069 E69.22755
G1 X123.905 Y133.085 E69.23018
G1 X123.72 Y133.339 E69.26789
G1 X123.707 Y133.356 E69.27045
G1 X123.697 Y133.375 E69.27303
G1 X123.586 Y133.568 E69.29975
G1 X123.578 Y133.582 E69.30168
G1 X123.572 Y133.594 E69.30329
G1 X123.476 Y133.798 E69.33035
G1 X123.471 Y133.814 E69.33236
G1 X123.399 Y134.009 E69.3573
G1 X123.392 Y134.028 E69.35973
G1 X123.388 Y134.045 E69.36183
G1 X123.334 Y134.251 E69.38738
G1 X123.329 Y134.267 E69.3894
G1 X123.327 Y134.282 E69.39121
G1 X123.291 Y134.486 E69.41607
G1 X123.287 Y134.504 E69.41828
G1 X123.286 Y134.521 E69.42033
G1 X123.267 Y134.73 E69.44551
G1 X123.265 Y134.748 E69.44768
G1 X123.265 Y134.766 E69.44984
G1 X123.265 Y134.978 E69.47528
G1 X123.265 Y134.996 E69.47744
G1 X123.287 Y135.24 E69.50684
