;FLAVOR:UltiGCode
;TIME:5954
;MATERIAL:28387
;MATERIAL2:0
;NOZZLE_DIAMETER:0.4
;Generated with Cura_SteamEngine 3.3.1
M82 ;absolute extrusion mode

G92 E0
G10
;LAYER_COUNT:57
;LAYER:0
M107
G0 F3000 X30.984 Y67.978 Z0.3
;TYPE:SKIRT
G11
G1 F1800 X31.512 Y67.774 E0.06792
G1 X32.062 Y67.647 E0.13566
G1 X32.685 Y67.598 E0.21065
G1 X48.867 Y67.599 E2.15249
G1 X49.431 Y67.639 E2.22034
G1 X49.984 Y67.758 E2.28822
G1 X50.514 Y67.954 E2.35603
G1 X51.012 Y68.222 E2.42389
G1 X51.466 Y68.559 E2.49174
G1 X51.869 Y68.955 E2.55954
G1 X52.212 Y69.405 E2.62744
G1 X52.487 Y69.898 E2.69518
G1 X52.691 Y70.426 E2.76311
G1 X52.818 Y70.977 E2.83096
G1 X52.867 Y71.599 E2.90583
G1 X52.867 Y90.78 E5.20755
G1 X52.827 Y91.344 E5.2754
G1 X52.708 Y91.897 E5.34328
G1 X52.512 Y92.427 E5.41109
G1 X52.244 Y92.924 E5.47885
G1 X51.908 Y93.379 E5.54672
G1 X51.511 Y93.782 E5.61461
G1 X51.061 Y94.124 E5.68243
G1 X50.568 Y94.4 E5.75023
G1 X50.04 Y94.604 E5.81816
G1 X49.49 Y94.731 E5.88589
G1 X48.867 Y94.78 E5.96089
G1 X32.685 Y94.78 E7.90273
G1 X32.121 Y94.74 E7.97058
G1 X31.568 Y94.621 E8.03845
G1 X31.038 Y94.425 E8.10626
G1 X30.541 Y94.157 E8.17402
G1 X30.086 Y93.821 E8.2419
G1 X29.683 Y93.424 E8.30978
G1 X29.341 Y92.974 E8.37761
G1 X29.065 Y92.481 E8.44541
G1 X28.861 Y91.953 E8.51333
G1 X28.734 Y91.403 E8.58107
G1 X28.685 Y90.78 E8.65606
G1 X28.685 Y71.598 E10.9579
G1 X28.725 Y71.034 E11.02575
G1 X28.844 Y70.481 E11.09363
G1 X29.04 Y69.951 E11.16144
G1 X29.308 Y69.454 E11.2292
G1 X29.644 Y68.999 E11.29707
G1 X30.041 Y68.596 E11.36495
G1 X30.491 Y68.254 E11.43278
G1 X30.984 Y67.978 E11.50058
G0 F3000 X31.357 Y68.252
G1 F1800 X31.868 Y68.092 E11.56483
G1 X32.398 Y68.009 E11.62921
G1 X32.685 Y67.998 E11.66367
G1 X48.867 Y67.999 E13.60551
G1 X49.402 Y68.039 E13.66989
G1 X49.925 Y68.158 E13.73426
G1 X50.424 Y68.353 E13.79855
G1 X50.889 Y68.621 E13.86295
G1 X51.309 Y68.954 E13.92727
G1 X51.675 Y69.346 E13.99163
G1 X51.979 Y69.788 E14.056
G1 X52.213 Y70.271 E14.12041
G1 X52.373 Y70.783 E14.18478
G1 X52.456 Y71.312 E14.24903
G1 X52.467 Y71.599 E14.2835
G1 X52.467 Y90.78 E16.58522
G1 X52.427 Y91.315 E16.6496
G1 X52.308 Y91.838 E16.71396
G1 X52.113 Y92.337 E16.77825
G1 X51.845 Y92.802 E16.84265
G1 X51.512 Y93.222 E16.90697
G1 X51.12 Y93.588 E16.97133
G1 X50.678 Y93.891 E17.03564
G1 X50.195 Y94.126 E17.10009
G1 X49.684 Y94.286 E17.16435
G1 X49.154 Y94.369 E17.22872
G1 X48.867 Y94.38 E17.26319
G1 X32.685 Y94.38 E19.20503
G1 X32.15 Y94.34 E19.26941
G1 X31.627 Y94.221 E19.33377
G1 X31.128 Y94.026 E19.39806
G1 X30.663 Y93.758 E19.46247
G1 X30.243 Y93.425 E19.52679
G1 X29.877 Y93.033 E19.59114
G1 X29.574 Y92.591 E19.65545
G1 X29.339 Y92.108 E19.7199
G1 X29.179 Y91.597 E19.78416
G1 X29.096 Y91.067 E19.84853
G1 X29.085 Y90.78 E19.883
G1 X29.085 Y71.598 E22.18484
G1 X29.125 Y71.063 E22.24922
G1 X29.244 Y70.54 E22.31358
G1 X29.439 Y70.041 E22.37787
G1 X29.707 Y69.576 E22.44228
G1 X30.04 Y69.156 E22.5066
G1 X30.432 Y68.79 E22.57095
G1 X30.874 Y68.487 E22.63526
G1 X31.357 Y68.252 E22.69972
G0 F3000 X31.254 Y68.736
G1 F1800 X31.722 Y68.546 E22.76033
G1 X32.215 Y68.433 E22.82102
G1 X32.685 Y68.398 E22.87758
G1 X48.867 Y68.399 E24.81942
G1 X49.371 Y68.439 E24.88009
G1 X49.863 Y68.558 E24.94083
G1 X50.329 Y68.753 E25.00145
G1 X50.759 Y69.018 E25.06206
G1 X51.142 Y69.349 E25.12281
G1 X51.468 Y69.735 E25.18343
G1 X51.729 Y70.168 E25.2441
G1 X51.919 Y70.637 E25.30483
G1 X52.032 Y71.129 E25.3654
G1 X52.067 Y71.599 E25.42196
G1 X52.067 Y90.78 E27.72368
G1 X52.027 Y91.284 E27.78435
G1 X51.908 Y91.775 E27.84498
G1 X51.714 Y92.242 E27.90566
G1 X51.448 Y92.672 E27.96633
G1 X51.118 Y93.055 E28.027
G1 X50.731 Y93.381 E28.08772
G1 X50.298 Y93.642 E28.14839
G1 X49.83 Y93.832 E28.209
G1 X49.337 Y93.945 E28.2697
G1 X48.867 Y93.98 E28.32625
G1 X32.685 Y93.98 E30.26809
G1 X32.181 Y93.94 E30.32876
G1 X31.69 Y93.821 E30.38939
G1 X31.223 Y93.627 E30.45007
G1 X30.793 Y93.361 E30.51075
G1 X30.41 Y93.031 E30.57142
G1 X30.084 Y92.644 E30.63214
G1 X29.823 Y92.211 E30.69281
G1 X29.633 Y91.743 E30.75342
G1 X29.52 Y91.25 E30.81411
G1 X29.485 Y90.78 E30.87067
G1 X29.485 Y71.598 E33.17251
G1 X29.525 Y71.094 E33.23318
G1 X29.644 Y70.603 E33.2938
G1 X29.838 Y70.136 E33.35449
G1 X30.104 Y69.706 E33.41516
G1 X30.434 Y69.323 E33.47583
G1 X30.821 Y68.997 E33.53655
G1 X31.254 Y68.736 E33.59722
G10
G0 F3000 X33.29 Y70.893
G0 X33.29 Y72.203
G0 X46.525 Y73.24
;TYPE:WALL-INNER
G11
G1 F1800 X35.027 Y73.24 E34.97698
G1 X35.027 Y77.73 E35.51578
G1 X34.076 Y77.73 E35.6299
G1 X34.076 Y72.989 E36.19882
G1 X35.027 Y72.989 E36.31294
G1 X46.525 Y72.989 E37.17874
G1 X47.476 Y72.989 E37.29286
G1 X47.476 Y77.73 E37.86178
G1 X46.525 Y77.73 E37.9759
G1 X46.525 Y73.24 E38.5147
G0 F3000 X46.125 Y73.64
G1 F1800 X35.427 Y73.64 E39.79846
G1 X35.427 Y78.13 E40.33726
G1 X33.676 Y78.13 E40.54738
G1 X33.676 Y72.589 E41.2123
G1 X47.876 Y72.589 E42.9163
G1 X47.876 Y78.13 E43.58122
G1 X46.125 Y78.13 E43.79134
G1 X46.125 Y73.64 E44.33014
G0 F3000 X45.725 Y74.04
G1 F1800 X35.827 Y74.04 E45.5179
G1 X35.827 Y78.53 E46.0567
G1 X33.276 Y78.53 E46.36282
G1 X33.276 Y72.189 E47.12374
G1 X48.276 Y72.189 E48.92374
G1 X48.276 Y78.53 E49.68466
G1 X45.725 Y78.53 E49.99078
G1 X45.725 Y74.04 E50.52958
G0 F3000 X45.325 Y74.44
;TYPE:WALL-OUTER
G1 F1800 X36.227 Y74.44 E51.62134
G1 X36.227 Y78.93 E52.16014
G1 X32.876 Y78.93 E52.56226
G1 X32.876 Y71.789 E53.41918
G1 X48.676 Y71.789 E55.31518
G1 X48.676 Y78.93 E56.1721
G1 X45.325 Y78.93 E56.57422
G1 X45.325 Y74.44 E57.11302
G0 F3000 X44.925 Y74.44
G0 X46.915 Y73.379
;TYPE:SKIN
G1 F1800 X47.086 Y73.379 E57.13354
G1 X47.086 Y77.34 E57.60886
G1 X46.915 Y77.34 E57.62938
G1 X46.915 Y73.379 E58.1047
G0 F3000 X34.637 Y73.379
G1 F1800 X34.637 Y77.34 E58.58002
G1 X34.466 Y77.34 E58.60054
G1 X34.466 Y73.379 E59.07586
G1 X34.637 Y73.379 E59.09638
G10
G0 F3000 X35.027 Y78.51
G0 X35.027 Y79.826
G0 X35.027 Y82.552
G0 X35.027 Y83.868
G0 X35.027 Y89.138
;TYPE:WALL-INNER
G11
G1 F1800 X46.525 Y89.138 E60.47614
G1 X46.525 Y84.648 E61.01494
G1 X47.476 Y84.648 E61.12906
G1 X47.476 Y89.389 E61.69798
G1 X46.525 Y89.389 E61.8121
G1 X35.027 Y89.389 E62.6779
G1 X34.076 Y89.389 E62.79202
G1 X34.076 Y84.648 E63.36094
G1 X35.027 Y84.648 E63.47506
G1 X35.027 Y89.138 E64.01386
G0 F3000 X35.427 Y88.738
G1 F1800 X46.125 Y88.738 E65.29762
G1 X46.125 Y84.248 E65.83642
G1 X47.876 Y84.248 E66.04654
G1 X47.876 Y89.789 E66.71146
G1 X33.676 Y89.789 E68.41546
G1 X33.676 Y84.248 E69.08038
G1 X35.427 Y84.248 E69.2905
G1 X35.427 Y88.738 E69.8293
G0 F3000 X35.827 Y88.338
G1 F1800 X45.725 Y88.338 E71.01706
G1 X45.725 Y83.848 E71.55586
G1 X48.276 Y83.848 E71.86198
G1 X48.276 Y90.189 E72.6229
G1 X33.276 Y90.189 E74.4229
G1 X33.276 Y83.848 E75.18382
G1 X35.827 Y83.848 E75.48994
G1 X35.827 Y88.338 E76.02874
G0 F3000 X36.227 Y87.938
;TYPE:WALL-OUTER
G1 F1800 X45.325 Y87.938 E77.1205
G1 X45.325 Y83.448 E77.6593
G1 X48.676 Y83.448 E78.06142
G1 X48.676 Y90.589 E78.91834
G1 X32.876 Y90.589 E80.81434
G1 X32.876 Y83.448 E81.67126
G1 X36.227 Y83.448 E82.07338
G1 X36.227 Y87.938 E82.61218
G0 F3000 X36.627 Y87.938
G0 X34.637 Y88.999
;TYPE:SKIN
G1 F1800 X34.466 Y88.999 E82.6327
G1 X34.466 Y85.038 E83.10802
G1 X34.637 Y85.038 E83.12854
G1 X34.637 Y88.999 E83.60386
G0 F3000 X46.915 Y88.999
G1 F1800 X46.915 Y85.038 E84.07918
G1 X47.086 Y85.038 E84.0997
G1 X47.086 Y88.999 E84.57502
G1 X46.915 Y88.999 E84.59554
G10
G0 F3000 X45.825 Y83.868
G0 X45.825 Y82.552
G0 X45.825 Y79.826
G0 X45.825 Y78.51
G0 X45.825 Y73.94
;TIME_ELAPSED:29.898701
;LAYER:1
M106 S255
G0 F4500 X45.825 Y73.94 Z0.6
;TYPE:WALL-INNER
G11
G1 F2700 X35.727 Y73.94 E85.8073
G1 X35.727 Y78.43 E86.3461
G1 X33.676 Y78.43 E86.59222
G1 X33.676 Y72.589 E87.29314
G1 X47.876 Y72.589 E88.99714
G1 X47.876 Y78.43 E89.69806
G1 X45.825 Y78.43 E89.94418
G1 X45.825 Y73.94 E90.48298
G0 F4500 X45.425 Y74.34
G1 F2700 X36.127 Y74.34 E91.59874
G1 X36.127 Y78.83 E92.13754
G1 X33.276 Y78.83 E92.47966
G1 X33.276 Y72.189 E93.27658
G1 X48.276 Y72.189 E95.07658
G1 X48.276 Y78.83 E95.8735
G1 X45.425 Y78.83 E96.21562
G1 X45.425 Y74.34 E96.75442
G0 F4500 X45.025 Y74.74
G1 F2700 X36.527 Y74.74 E97.77418
G1 X36.527 Y79.23 E98.31298
G1 X32.876 Y79.23 E98.7511
G1 X32.876 Y71.789 E99.64402
G1 X48.676 Y71.789 E101.54002
G1 X48.676 Y79.23 E102.43294
G1 X45.025 Y79.23 E102.87106
G1 X45.025 Y74.74 E103.40986
G0 F4500 X44.625 Y75.14
;TYPE:WALL-OUTER
G1 F2100 X36.927 Y75.14 E104.33362
G1 X36.927 Y79.63 E104.87242
G1 X32.476 Y79.63 E105.40654
G1 X32.476 Y71.389 E106.39546
G1 X49.076 Y71.389 E108.38746
G1 X49.076 Y79.63 E109.37638
G1 X44.625 Y79.63 E109.9105
G1 X44.625 Y75.14 E110.4493
G0 F4500 X44.225 Y75.14
G0 X46.215 Y73.55
;TYPE:SKIN
G1 F2100 X35.337 Y73.55 E111.75466
G1 X35.337 Y78.04 E112.29346
G1 X34.066 Y78.04 E112.44598
G1 X34.066 Y72.979 E113.0533
G1 X47.486 Y72.979 E114.6637
G1 X47.486 Y78.04 E115.27102
G1 X46.215 Y78.04 E115.42354
G1 X46.215 Y73.55 E115.96234
G0 F4500 X47.156 Y77.859
G1 F2100 X47.306 Y77.71 E115.98771
G0 F4500 X47.306 Y77.144
G1 F2100 X46.591 Y77.859 E116.10905
G1 X46.45 Y78
G0 F4500 X46.394 Y77.49
G1 F2100 X47.306 Y76.578 E116.26382
G1 X47.447 Y76.437
G0 F4500 X47.306 Y76.013
G1 F2100 X46.394 Y76.924 E116.41851
G1 X46.253 Y77.065
G0 F4500 X46.394 Y76.359
G1 F2100 X47.306 Y75.447 E116.57328
G1 X47.447 Y75.306
G0 F4500 X47.306 Y74.881
G1 F2100 X46.394 Y75.793 E116.72805
G1 X46.253 Y75.934
G0 F4500 X46.394 Y75.227
G1 F2100 X47.306 Y74.316 E116.88274
G1 X47.447 Y74.175
G0 F4500 X47.306 Y73.75
G1 F2100 X46.394 Y74.661 E117.03742
G1 X46.253 Y74.802
G0 F4500 X46.394 Y74.096
G1 F2100 X47.306 Y73.184 E117.1922
G1 X47.447 Y73.043
G0 F4500 X46.58 Y73.343
G1 F2100 X46.095 Y73.263 E117.24174
G1 X45.529 Y73.263 E117.27774
G1 X44.964 Y73.263 E117.31368
G1 X44.398 Y73.263 E117.34967
G1 X43.832 Y73.263 E117.38567
G1 X43.267 Y73.263 E117.4216
G1 X42.701 Y73.263 E117.4576
G1 X42.135 Y73.263 E117.4936
G1 X41.57 Y73.263 E117.52953
G1 X41.004 Y73.263 E117.56553
G1 X40.438 Y73.263 E117.60153
G1 X39.873 Y73.263 E117.63746
G1 X39.307 Y73.263 E117.67346
G1 X38.741 Y73.263 E117.70946
G1 X38.176 Y73.263 E117.74539
G1 X37.61 Y73.263 E117.78139
G1 X37.044 Y73.263 E117.81739
G1 X36.478 Y73.263 E117.85338
G1 X35.913 Y73.263 E117.88932
G1 X35.347 Y73.263 E117.92532
G0 F4500 X35.157 Y73.454
G1 F2100 X34.245 Y74.365 E118.08
G1 X34.104 Y74.506
G0 F4500 X34.245 Y73.8
G1 F2100 X34.887 Y73.157 E118.18904
G1 X35.028 Y73.016
G0 F4500 X34.322 Y73.157
G1 F2100 X34.245 Y73.234 E118.20211
G0 F4500 X35.157 Y74.019
G1 F2100 X34.245 Y74.931 E118.35688
G1 X34.104 Y75.072
G0 F4500 X34.245 Y75.497
G1 F2100 X35.157 Y74.585 E118.51165
G1 X35.298 Y74.444
G0 F4500 X35.157 Y75.151
G1 F2100 X34.245 Y76.062 E118.66634
G1 X34.104 Y76.203
G0 F4500 X34.245 Y76.628
G1 F2100 X35.157 Y75.716 E118.82111
G1 X35.298 Y75.575
G0 F4500 X35.157 Y76.282
G1 F2100 X34.245 Y77.194 E118.97588
G1 X34.104 Y77.335
G0 F4500 X34.245 Y77.759
G1 F2100 X35.157 Y76.848 E119.13057
G1 X35.298 Y76.707
G0 F4500 X35.157 Y77.414
G1 F2100 X34.711 Y77.859 E119.20617
G10
G0 F4500 X35.727 Y79.21
G0 X35.727 Y80.526
G0 X35.727 Y81.852
G0 X35.727 Y83.168
G0 X35.727 Y88.438
;TYPE:WALL-INNER
G11
G1 F2700 X45.825 Y88.438 E120.41793
G1 X45.825 Y83.948 E120.95673
G1 X47.876 Y83.948 E121.20285
G1 X47.876 Y89.789 E121.90377
G1 X33.676 Y89.789 E123.60777
G1 X33.676 Y83.948 E124.30869
G1 X35.727 Y83.948 E124.55481
G1 X35.727 Y88.438 E125.09361
G0 F4500 X36.127 Y88.038
G1 F2700 X45.425 Y88.038 E126.20937
G1 X45.425 Y83.548 E126.74817
G1 X48.276 Y83.548 E127.09029
G1 X48.276 Y90.189 E127.88721
G1 X33.276 Y90.189 E129.68721
G1 X33.276 Y83.548 E130.48413
G1 X36.127 Y83.548 E130.82625
G1 X36.127 Y88.038 E131.36505
G0 F4500 X36.527 Y87.638
G1 F2700 X45.025 Y87.638 E132.38481
G1 X45.025 Y83.148 E132.92361
G1 X48.676 Y83.148 E133.36173
G1 X48.676 Y90.589 E134.25465
G1 X32.876 Y90.589 E136.15065
G1 X32.876 Y83.148 E137.04357
G1 X36.527 Y83.148 E137.48169
G1 X36.527 Y87.638 E138.02049
G0 F4500 X36.927 Y87.238
;TYPE:WALL-OUTER
G1 F2100 X44.625 Y87.238 E138.94425
G1 X44.625 Y82.748 E139.48305
G1 X49.076 Y82.748 E140.01717
G1 X49.076 Y90.989 E141.00609
G1 X32.476 Y90.989 E142.99809
G1 X32.476 Y82.748 E143.98701
G1 X36.927 Y82.748 E144.52113
G1 X36.927 Y87.238 E145.05993
G0 F4500 X37.327 Y87.238
G0 X35.337 Y88.828
;TYPE:SKIN
G1 F2100 X46.215 Y88.828 E146.36529
G1 X46.215 Y84.338 E146.90409
G1 X47.486 Y84.338 E147.05661
G1 X47.486 Y89.399 E147.66393
G1 X34.066 Y89.399 E149.27433
G1 X34.066 Y84.338 E149.88165
G1 X35.337 Y84.338 E150.03417
G1 X35.337 Y88.828 E150.57297
G0 F4500 X34.245 Y85.113
G1 F2100 X34.842 Y84.516 E150.67428
G1 X34.983 Y84.375
G0 F4500 X35.156 Y84.768
G1 F2100 X34.245 Y85.679 E150.82889
G1 X34.104 Y85.82
G0 F4500 X34.245 Y86.245
G1 F2100 X35.156 Y85.334 E150.98349
G1 X35.297 Y85.193
G0 F4500 X35.156 Y85.9
G1 F2100 X34.245 Y86.81 E151.138
G1 X34.104 Y86.951
G0 F4500 X34.245 Y87.376
G1 F2100 X35.156 Y86.465 E151.29261
G1 X35.297 Y86.324
G0 F4500 X35.156 Y87.031
G1 F2100 X34.245 Y87.942 E151.44721
G1 X34.104 Y88.083
G0 F4500 X34.245 Y88.507
G1 F2100 X35.156 Y87.597 E151.60173
G1 X35.297 Y87.456
G0 F4500 X35.156 Y88.162
G1 F2100 X34.245 Y89.073 E151.75633
G1 X34.104 Y89.214
G0 F4500 X34.911 Y88.972
G1 F2100 X35.338 Y89.112 E151.81564
G1 X35.903 Y89.112 E151.85124
G1 X36.469 Y89.112 E151.8869
G1 X37.035 Y89.112 E151.92255
G1 X37.6 Y89.112 E151.95815
G1 X38.166 Y89.112 E151.99381
G1 X38.732 Y89.112 E152.02947
G1 X39.297 Y89.112 E152.06506
G1 X39.863 Y89.112 E152.10072
G1 X40.429 Y89.112 E152.13638
G1 X40.994 Y89.112 E152.17197
G1 X41.56 Y89.112 E152.20763
G1 X42.126 Y89.112 E152.24329
G1 X42.691 Y89.112 E152.27888
G1 X43.257 Y89.112 E152.31454
G1 X43.823 Y89.112 E152.3502
G1 X44.388 Y89.112 E152.38579
G1 X44.954 Y89.112 E152.42145
G1 X45.52 Y89.112 E152.45711
G1 X46.086 Y89.112 E152.49277
G0 F4500 X46.395 Y88.803
G1 F2100 X47.306 Y87.892 E152.64737
G1 X47.447 Y87.751
G0 F4500 X47.306 Y87.326
G1 F2100 X46.395 Y88.237 E152.80197
G1 X46.254 Y88.378
G0 F4500 X46.395 Y87.672
G1 F2100 X47.306 Y86.761 E152.95657
G1 X47.447 Y86.62
G0 F4500 X47.306 Y86.195
G1 F2100 X46.395 Y87.106 E153.11117
G1 X46.254 Y87.247
G0 F4500 X46.395 Y86.54
G1 F2100 X47.306 Y85.629 E153.26578
G1 X47.447 Y85.488
G0 F4500 X47.306 Y85.064
G1 F2100 X46.395 Y85.974 E153.42029
G1 X46.254 Y86.115
G0 F4500 X46.395 Y85.409
G1 F2100 X47.287 Y84.516 E153.57176
G1 X47.428 Y84.375
G0 F4500 X46.722 Y84.516
G1 F2100 X46.395 Y84.843 E153.62725
G0 F4500 X47.306 Y88.458
G1 F2100 X46.546 Y89.217 E153.75614
G1 X46.405 Y89.358
G0 F4500 X47.112 Y89.217
G1 F2100 X47.306 Y89.024 E153.78898
G10
G0 F4500 X45.525 Y83.168
G0 X45.525 Y81.852
G0 X45.525 Y80.526
G0 X45.525 Y79.21
G0 X45.525 Y74.24
;TIME_ELAPSED:47.919803
;LAYER:2
G0 F6000 X45.525 Y74.24 Z0.9
;TYPE:WALL-INNER
G11
G1 F3600 X36.027 Y74.24 E154.92874
G1 X36.027 Y78.73 E155.46754
G1 X33.676 Y78.73 E155.74966
G1 X33.676 Y72.589 E156.48658
G1 X47.876 Y72.589 E158.19058
G1 X47.876 Y78.73 E158.9275
G1 X45.525 Y78.73 E159.20962
G1 X45.525 Y74.24 E159.74842
G0 F6000 X45.125 Y74.64
G1 F3600 X36.427 Y74.64 E160.79218
G1 X36.427 Y79.13 E161.33098
G1 X33.276 Y79.13 E161.7091
G1 X33.276 Y72.189 E162.54202
G1 X48.276 Y72.189 E164.34202
G1 X48.276 Y79.13 E165.17494
G1 X45.125 Y79.13 E165.55306
G1 X45.125 Y74.64 E166.09186
G0 F6000 X44.725 Y75.04
G1 F3600 X36.827 Y75.04 E167.03962
G1 X36.827 Y79.53 E167.57842
G1 X32.876 Y79.53 E168.05254
G1 X32.876 Y71.789 E168.98146
G1 X48.676 Y71.789 E170.87746
G1 X48.676 Y79.53 E171.80638
G1 X44.725 Y79.53 E172.2805
G1 X44.725 Y75.04 E172.8193
G0 F6000 X44.325 Y75.44
;TYPE:WALL-OUTER
G1 F2400 X37.227 Y75.44 E173.67106
G1 X37.227 Y79.93 E174.20986
G1 X32.476 Y79.93 E174.77998
G1 X32.476 Y71.389 E175.8049
G1 X49.076 Y71.389 E177.7969
G1 X49.076 Y79.93 E178.82182
G1 X44.325 Y79.93 E179.39194
G1 X44.325 Y75.44 E179.93074
G0 F6000 X43.925 Y75.44
G0 X45.915 Y73.85
;TYPE:SKIN
G1 F2400 X35.637 Y73.85 E181.1641
G1 X35.637 Y78.34 E181.7029
G1 X34.066 Y78.34 E181.89142
G1 X34.066 Y72.979 E182.53474
G1 X47.486 Y72.979 E184.14514
G1 X47.486 Y78.34 E184.78846
G1 X45.915 Y78.34 E184.97698
G1 X45.915 Y73.85 E185.51578
G0 F6000 X47.306 Y73.327
G1 F2400 X47.136 Y73.157 E185.54463
G0 F6000 X46.57 Y73.157
