;FLAVOR:UltiGCode
;TIME:5483
;MATERIAL:61366
;MATERIAL2:0
;NOZZLE_DIAMETER:0.8
;Generated with Cura_SteamEngine 3.3.1
M82 ;absolute extrusion mode

G92 E0
G10
;LAYER_COUNT:33
;LAYER:0
M107
G0 F3000 X24.285 Y66.511 Z0.3
;TYPE:SKIRT
G11
G1 F1800 X24.628 Y66.392 E0.08713
G1 X26.845 Y65.731 E0.64236
G1 X27.201 Y65.642 E0.73043
G1 X29.922 Y65.084 E1.39706
G1 X30.274 Y65.027 E1.48264
G1 X32.581 Y64.755 E2.04015
G1 X32.953 Y64.728 E2.12967
G1 X35.811 Y64.646 E2.81587
G1 X36.173 Y64.651 E2.90276
G1 X38.476 Y64.784 E3.4564
G1 X38.757 Y64.81 E3.52413
G1 X40.358 Y65.011 E3.91139
G1 X40.624 Y65.053 E3.97602
G1 X42.835 Y65.476 E4.51628
G1 X43.194 Y65.561 E4.60482
G1 X45.96 Y66.347 E5.29494
G1 X46.306 Y66.462 E5.38245
G1 X48.466 Y67.284 E5.93712
G1 X48.801 Y67.428 E6.02463
G1 X51.323 Y68.648 E6.69701
G1 X51.644 Y68.821 E6.78453
G1 X53.69 Y70.04 E7.35612
G1 X53.93 Y70.194 E7.42456
G1 X55.177 Y71.057 E7.78852
G1 X55.388 Y71.213 E7.85149
G1 X57.201 Y72.643 E8.40567
G1 X57.419 Y72.827 E8.47414
G1 X58.6 Y73.896 E8.85645
G1 X58.792 Y74.082 E8.92061
G1 X60.378 Y75.713 E9.4666
G1 X60.621 Y75.986 E9.55432
G1 X62.429 Y78.202 E10.24072
G1 X62.648 Y78.495 E10.32851
G1 X63.947 Y80.405 E10.88288
G1 X64.095 Y80.64 E10.94953
G1 X64.861 Y81.944 E11.31249
G1 X64.991 Y82.182 E11.37758
G1 X66.072 Y84.328 E11.95427
G1 X66.225 Y84.668 E12.04375
G1 X67.251 Y87.253 E12.71123
G1 X67.348 Y87.523 E12.78009
G1 X67.754 Y88.793 E13.10008
G1 X67.826 Y89.047 E13.16344
G1 X68.403 Y91.339 E13.73069
G1 X68.478 Y91.705 E13.82035
G1 X68.927 Y94.531 E14.5071
G1 X68.969 Y94.894 E14.5948
G1 X69.135 Y97.244 E15.16021
G1 X69.145 Y97.523 E15.22721
G1 X69.151 Y99.011 E15.58433
G1 X69.144 Y99.273 E15.64724
G1 X69.009 Y101.579 E16.20162
G1 X68.983 Y101.857 E16.26863
G1 X68.792 Y103.379 E16.63678
G1 X68.75 Y103.649 E16.70236
G1 X68.304 Y105.97 E17.26959
G1 X68.218 Y106.329 E17.35819
G1 X67.451 Y109.018 E18.02929
G1 X67.339 Y109.356 E18.11474
G1 X66.518 Y111.519 E18.67
G1 X66.37 Y111.861 E18.75944
G1 X65.121 Y114.438 E19.44673
G1 X64.947 Y114.761 E19.53478
G1 X63.754 Y116.757 E20.09287
G1 X63.612 Y116.979 E20.15612
G1 X62.828 Y118.121 E20.48857
G1 X62.666 Y118.341 E20.55414
G1 X61.127 Y120.297 E21.15147
G1 X60.879 Y120.585 E21.24268
G1 X58.936 Y122.641 E21.92161
G1 X58.607 Y122.953 E22.03042
G1 X55.866 Y125.288 E22.8946
G1 X55.478 Y125.582 E23.01143
G1 X52.858 Y127.335 E23.768
G1 X52.556 Y127.519 E23.85288
G1 X50.807 Y128.487 E24.33264
G1 X50.509 Y128.636 E24.4126
G1 X48.101 Y129.729 E25.04727
G1 X47.823 Y129.844 E25.11947
G1 X46.383 Y130.377 E25.48798
G1 X46.041 Y130.487 E25.57421
G1 X42.6 Y131.435 E26.43081
G1 X42.163 Y131.531 E26.53819
G1 X39.52 Y131.964 E27.18097
G1 X39.235 Y132 E27.24991
G1 X37.813 Y132.134 E27.59271
G1 X37.544 Y132.151 E27.6574
G1 X35.165 Y132.222 E28.22861
G1 X34.881 Y132.221 E28.29677
G1 X33.353 Y132.163 E28.66375
G1 X33.085 Y132.144 E28.72824
G1 X30.739 Y131.904 E29.29421
G1 X30.46 Y131.866 E29.36179
G1 X28.947 Y131.608 E29.73015
G1 X28.597 Y131.533 E29.81606
G1 X25.134 Y130.633 E30.67479
G1 X24.796 Y130.53 E30.75959
G1 X23.523 Y130.082 E31.08348
G1 X23.225 Y129.964 E31.1604
G1 X20.39 Y128.716 E31.90381
G1 X19.987 Y128.512 E32.01222
G1 X17.012 Y126.8 E32.836
G1 X16.712 Y126.61 E32.92123
G1 X15.542 Y125.798 E33.26303
G1 X15.328 Y125.639 E33.32701
G1 X13.428 Y124.133 E33.90888
G1 X13.163 Y123.904 E33.99294
G1 X11.357 Y122.209 E34.58738
G1 X11.092 Y121.938 E34.67834
G1 X9.178 Y119.785 E35.36973
G1 X8.946 Y119.5 E35.45793
G1 X7.567 Y117.645 E36.01267
G1 X7.413 Y117.423 E36.07751
G1 X6.64 Y116.23 E36.41868
G1 X6.503 Y116.003 E36.48231
G1 X5.322 Y113.901 E37.06097
G1 X5.191 Y113.647 E37.12956
G1 X4.525 Y112.246 E37.50185
G1 X4.416 Y111.997 E37.56709
G1 X3.553 Y109.83 E38.1269
G1 X3.435 Y109.493 E38.21259
G1 X2.671 Y106.97 E38.84526
G1 X2.577 Y106.599 E38.93712
G1 X2.013 Y103.855 E39.60944
G1 X1.955 Y103.495 E39.69696
G1 X1.683 Y101.162 E40.26067
G1 X1.657 Y100.792 E40.34969
G1 X1.579 Y97.978 E41.02531
G1 X1.584 Y97.618 E41.11172
G1 X1.72 Y95.284 E41.67283
G1 X1.758 Y94.914 E41.76209
G1 X2.171 Y92.117 E42.44065
G1 X2.24 Y91.757 E42.52863
G1 X2.794 Y89.432 E43.10225
G1 X2.867 Y89.167 E43.16822
G1 X3.295 Y87.781 E43.51636
G1 X3.382 Y87.528 E43.58057
G1 X4.22 Y85.323 E44.14669
G1 X4.368 Y84.981 E44.23613
G1 X5.614 Y82.414 E44.92095
G1 X5.786 Y82.094 E45.00814
G1 X6.973 Y80.107 E45.56363
G1 X7.174 Y79.802 E45.6513
G1 X8.803 Y77.547 E46.31894
G1 X9.027 Y77.264 E46.40556
G1 X10.596 Y75.444 E46.98227
G1 X10.792 Y75.231 E47.05174
G1 X11.861 Y74.151 E47.41644
G1 X12.124 Y73.907 E47.50254
G1 X14.874 Y71.567 E48.36914
G1 X15.227 Y71.298 E48.47566
G1 X17.424 Y69.797 E49.11425
G1 X17.673 Y69.639 E49.18502
G1 X18.949 Y68.893 E49.53976
G1 X19.186 Y68.765 E49.60441
G1 X21.267 Y67.721 E50.16317
G1 X21.607 Y67.569 E50.25256
G1 X24.285 Y66.511 E50.94362
G0 F3000 X24.579 Y67.255
G1 F1800 X24.857 Y67.159 E51.0142
G1 X27.074 Y66.498 E51.56943
G1 X27.362 Y66.425 E51.64074
G1 X30.083 Y65.867 E52.30737
G1 X30.368 Y65.821 E52.37665
G1 X32.675 Y65.549 E52.93417
G1 X32.975 Y65.527 E53.00636
G1 X35.833 Y65.445 E53.69256
G1 X36.127 Y65.45 E53.76313
G1 X38.43 Y65.583 E54.31677
G1 X38.658 Y65.603 E54.3717
G1 X40.259 Y65.804 E54.75896
G1 X40.474 Y65.839 E54.81124
G1 X42.685 Y66.262 E55.3515
G1 X42.975 Y66.33 E55.42299
G1 X45.741 Y67.116 E56.11311
G1 X46.021 Y67.209 E56.18392
G1 X48.181 Y68.031 E56.73859
G1 X48.453 Y68.148 E56.80965
G1 X50.975 Y69.368 E57.48204
G1 X51.234 Y69.508 E57.5527
G1 X53.28 Y70.727 E58.12428
G1 X53.475 Y70.852 E58.17987
G1 X54.722 Y71.715 E58.54383
G1 X54.893 Y71.841 E58.59481
G1 X56.706 Y73.271 E59.14899
G1 X56.882 Y73.42 E59.20433
G1 X58.063 Y74.489 E59.58665
G1 X58.219 Y74.64 E59.63875
G1 X59.805 Y76.271 E60.18475
G1 X60.001 Y76.492 E60.25564
G1 X61.809 Y78.708 E60.94204
G1 X61.986 Y78.945 E61.01303
G1 X63.285 Y80.855 E61.5674
G1 X63.406 Y81.045 E61.62146
G1 X64.172 Y82.349 E61.98442
G1 X64.277 Y82.541 E62.03694
G1 X65.358 Y84.687 E62.61364
G1 X65.481 Y84.963 E62.68616
G1 X66.507 Y87.548 E63.35364
G1 X66.586 Y87.767 E63.40951
G1 X66.992 Y89.037 E63.72951
G1 X67.05 Y89.242 E63.78064
G1 X67.627 Y91.534 E64.34788
G1 X67.688 Y91.83 E64.42042
G1 X68.137 Y94.656 E65.10716
G1 X68.171 Y94.95 E65.17819
G1 X68.337 Y97.3 E65.7436
G1 X68.345 Y97.526 E65.79787
G1 X68.351 Y99.014 E66.155
G1 X68.345 Y99.227 E66.20614
G1 X68.21 Y101.533 E66.76052
G1 X68.19 Y101.757 E66.8145
G1 X67.999 Y103.279 E67.18264
G1 X67.964 Y103.498 E67.23587
G1 X67.518 Y105.819 E67.8031
G1 X67.449 Y106.11 E67.87488
G1 X66.682 Y108.799 E68.54598
G1 X66.591 Y109.073 E68.61527
G1 X65.77 Y111.236 E69.17053
G1 X65.651 Y111.512 E69.24266
G1 X64.402 Y114.089 E69.92996
G1 X64.26 Y114.35 E70.00127
G1 X63.067 Y116.346 E70.55935
G1 X62.952 Y116.526 E70.61061
G1 X62.168 Y117.668 E70.94307
G1 X62.037 Y117.846 E70.99611
G1 X60.498 Y119.802 E71.59344
G1 X60.297 Y120.035 E71.66729
G1 X58.354 Y122.091 E72.34621
G1 X58.088 Y122.344 E72.43432
G1 X55.347 Y124.679 E73.29849
G1 X55.033 Y124.917 E73.39306
G1 X52.413 Y126.67 E74.14962
G1 X52.168 Y126.819 E74.21844
G1 X50.419 Y127.787 E74.6982
G1 X50.178 Y127.908 E74.76293
G1 X47.77 Y129.001 E75.39759
G1 X47.545 Y129.094 E75.45602
G1 X46.105 Y129.627 E75.82454
G1 X45.828 Y129.716 E75.89437
G1 X42.387 Y130.664 E76.75097
G1 X42.034 Y130.741 E76.83769
G1 X39.391 Y131.174 E77.48046
G1 X39.16 Y131.204 E77.53637
G1 X37.738 Y131.338 E77.87916
G1 X37.52 Y131.351 E77.93157
G1 X35.141 Y131.422 E78.50279
G1 X34.911 Y131.422 E78.55799
G1 X33.383 Y131.364 E78.92497
G1 X33.166 Y131.348 E78.97719
G1 X30.82 Y131.108 E79.54317
G1 X30.594 Y131.078 E79.59789
G1 X29.081 Y130.82 E79.96625
G1 X28.798 Y130.759 E80.03573
G1 X25.335 Y129.859 E80.89446
G1 X25.061 Y129.775 E80.96324
G1 X23.788 Y129.327 E81.28713
G1 X23.547 Y129.232 E81.3493
G1 X20.712 Y127.984 E82.09271
G1 X20.386 Y127.819 E82.1804
G1 X17.411 Y126.107 E83.00418
G1 X17.168 Y125.953 E83.07323
G1 X15.998 Y125.141 E83.41502
G1 X15.825 Y125.013 E83.46667
G1 X13.925 Y123.507 E84.04855
G1 X13.71 Y123.321 E84.11678
G1 X11.904 Y121.626 E84.71121
G1 X11.69 Y121.406 E84.78487
G1 X9.776 Y119.253 E85.47626
G1 X9.588 Y119.022 E85.54774
G1 X8.209 Y117.167 E86.10248
G1 X8.085 Y116.988 E86.15474
G1 X7.312 Y115.795 E86.49591
G1 X7.201 Y115.611 E86.54748
G1 X6.02 Y113.509 E87.12613
G1 X5.913 Y113.304 E87.18163
G1 X5.247 Y111.903 E87.55393
G1 X5.159 Y111.701 E87.60681
G1 X4.296 Y109.534 E88.16662
G1 X4.201 Y109.261 E88.23599
G1 X3.437 Y106.738 E88.86866
G1 X3.361 Y106.438 E88.94294
G1 X2.797 Y103.694 E89.61526
G1 X2.75 Y103.403 E89.68601
G1 X2.478 Y101.07 E90.24972
G1 X2.456 Y100.77 E90.32192
G1 X2.378 Y97.956 E90.99754
G1 X2.383 Y97.664 E91.06763
G1 X2.519 Y95.33 E91.62874
G1 X2.549 Y95.031 E91.70086
G1 X2.962 Y92.234 E92.37941
G1 X3.019 Y91.943 E92.45058
G1 X3.573 Y89.618 E93.0242
G1 X3.631 Y89.403 E93.07765
G1 X4.059 Y88.017 E93.42579
G1 X4.13 Y87.812 E93.47785
G1 X4.968 Y85.607 E94.04398
G1 X5.087 Y85.33 E94.11634
G1 X6.333 Y82.763 E94.80116
G1 X6.473 Y82.504 E94.87182
G1 X7.66 Y80.517 E95.42731
G1 X7.823 Y80.27 E95.49834
G1 X9.452 Y78.015 E96.16598
G1 X9.633 Y77.786 E96.23603
G1 X11.202 Y75.966 E96.81274
G1 X11.361 Y75.794 E96.86896
G1 X12.43 Y74.714 E97.23366
G1 X12.643 Y74.517 E97.30329
G1 X15.393 Y72.177 E98.16989
G1 X15.678 Y71.959 E98.25601
G1 X17.875 Y70.458 E98.8946
G1 X18.077 Y70.33 E98.95199
G1 X19.353 Y69.584 E99.30673
G1 X19.544 Y69.48 E99.35892
G1 X21.625 Y68.436 E99.91769
G1 X21.901 Y68.313 E99.99021
G1 X24.579 Y67.255 E100.68127
G10
G0 F3000 X24.964 Y69.779
G0 X25.641 Y71.768
G0 X29.856 Y99.652
G0 X30.153 Y100.59
G0 X30.409 Y101.083
G0 X31.162 Y102.285
G0 X31.235 Y102.218
;TYPE:WALL-INNER
G11
G1 F1800 X31.582 Y102.561 E100.79837
G1 X31.952 Y102.873 E100.91453
G1 X32.355 Y103.156 E101.03271
G1 X32.778 Y103.399 E101.14979
G1 X33.222 Y103.607 E101.26746
G1 X33.682 Y103.774 E101.38491
G1 X34.152 Y103.9 E101.5017
G1 X34.634 Y103.985 E101.61916
G1 X35.122 Y104.027 E101.73671
G1 X35.607 Y104.027 E101.85311
G1 X36.095 Y103.985 E101.97067
G1 X36.577 Y103.9 E102.08813
G1 X37.047 Y103.774 E102.20492
G1 X37.508 Y103.607 E102.32259
G1 X37.95 Y103.399 E102.43983
G1 X38.374 Y103.157 E102.557
G1 X38.777 Y102.873 E102.67532
G1 X39.147 Y102.561 E102.79148
G1 X39.494 Y102.218 E102.90858
G1 X39.81 Y101.839 E103.02701
G1 X40.089 Y101.441 E103.14366
G1 X40.333 Y101.018 E103.26086
G1 X40.54 Y100.575 E103.37821
G1 X40.706 Y100.118 E103.4949
G1 X40.83 Y99.661 E103.60855
G1 X40.884 Y99.385 E103.67605
G1 X40.941 Y98.939 E103.78396
G1 X40.961 Y98.662 E103.85061
G1 X40.961 Y98.185 E103.96509
G1 X40.918 Y97.701 E104.08171
G1 X40.834 Y97.218 E104.19937
G1 X40.706 Y96.745 E104.31697
G1 X40.54 Y96.287 E104.43389
G1 X40.333 Y95.844 E104.55124
G1 X40.09 Y95.422 E104.66811
G1 X39.809 Y95.02 E104.78583
G1 X39.494 Y94.646 E104.90318
G1 X39.15 Y94.302 E105.01994
G1 X38.776 Y93.987 E105.13729
G1 X38.373 Y93.706 E105.25521
G1 X37.951 Y93.463 E105.37208
G1 X37.526 Y93.264 E105.4847
G1 X37.266 Y93.163 E105.55165
G1 X36.813 Y93.019 E105.66573
G1 X36.354 Y92.919 E105.77847
G1 X36.08 Y92.876 E105.84504
G1 X35.608 Y92.835 E105.95874
G1 X35.122 Y92.835 E106.07538
G1 X34.634 Y92.877 E106.19294
G1 X34.152 Y92.962 E106.3104
G1 X33.679 Y93.088 E106.42788
G1 X33.221 Y93.256 E106.54496
G1 X32.778 Y93.462 E106.66221
G1 X32.355 Y93.706 E106.77941
G1 X31.953 Y93.987 E106.89713
G1 X31.579 Y94.302 E107.01448
G1 X31.235 Y94.646 E107.13124
G1 X30.92 Y95.02 E107.2486
G1 X30.639 Y95.422 E107.36631
G1 X30.396 Y95.844 E107.48318
G1 X30.189 Y96.287 E107.60053
G1 X30.023 Y96.745 E107.71745
G1 X29.895 Y97.218 E107.83505
G1 X29.811 Y97.701 E107.95271
G1 X29.768 Y98.185 E108.06933
G1 X29.768 Y98.678 E108.18765
G1 X29.811 Y99.161 E108.30403
G1 X29.895 Y99.644 E108.42169
G1 X30.023 Y100.117 E108.53929
G1 X30.189 Y100.575 E108.65621
G1 X30.396 Y101.018 E108.77357
G1 X30.64 Y101.441 E108.89076
G1 X30.919 Y101.839 E109.00742
G1 X31.235 Y102.218 E109.12585
G0 F3000 X31.825 Y101.676
;TYPE:WALL-OUTER
G1 F1800 X32.122 Y101.97 E109.22614
G1 X32.441 Y102.239 E109.32629
G1 X32.785 Y102.481 E109.42723
G1 X33.147 Y102.689 E109.52743
G1 X33.528 Y102.867 E109.62836
G1 X33.922 Y103.01 E109.72896
G1 X34.325 Y103.118 E109.82909
G1 X34.738 Y103.191 E109.92975
G1 X35.156 Y103.227 E110.03044
G1 X35.573 Y103.227 E110.13052
G1 X35.991 Y103.191 E110.23121
G1 X36.404 Y103.118 E110.33186
G1 X36.807 Y103.01 E110.432
G1 X37.201 Y102.867 E110.53259
G1 X37.581 Y102.689 E110.6333
G1 X37.944 Y102.481 E110.73371
G1 X38.288 Y102.239 E110.83465
G1 X38.607 Y101.97 E110.9348
G1 X38.904 Y101.676 E111.0351
G1 X39.174 Y101.352 E111.13632
G1 X39.414 Y101.01 E111.23659
G1 X39.623 Y100.648 E111.33691
G1 X39.8 Y100.268 E111.43752
G1 X39.943 Y99.876 E111.53767
G1 X40.05 Y99.479 E111.63635
G1 X40.094 Y99.256 E111.6909
G1 X40.145 Y98.86 E111.78672
G1 X40.161 Y98.634 E111.8411
G1 X40.161 Y98.221 E111.94022
G1 X40.124 Y97.805 E112.04045
G1 X40.052 Y97.391 E112.1413
G1 X39.943 Y96.986 E112.24196
G1 X39.8 Y96.594 E112.34211
G1 X39.623 Y96.214 E112.44272
G1 X39.414 Y95.852 E112.54304
G1 X39.174 Y95.508 E112.6437
G1 X38.904 Y95.188 E112.74419
G1 X38.608 Y94.892 E112.84465
G1 X38.288 Y94.622 E112.94514
G1 X37.944 Y94.382 E113.04581
G1 X37.581 Y94.173 E113.14633
G1 X37.211 Y94 E113.24436
G1 X37 Y93.918 E113.29869
G1 X36.606 Y93.793 E113.3979
G1 X36.207 Y93.706 E113.49591
G1 X35.983 Y93.671 E113.55032
G1 X35.573 Y93.635 E113.6491
G1 X35.156 Y93.635 E113.74918
G1 X34.738 Y93.671 E113.84987
G1 X34.325 Y93.744 E113.95053
G1 X33.92 Y93.852 E114.05112
G1 X33.528 Y93.996 E114.15135
G1 X33.147 Y94.173 E114.25217
G1 X32.785 Y94.382 E114.35249
G1 X32.441 Y94.622 E114.45316
G1 X32.121 Y94.892 E114.55365
G1 X31.825 Y95.188 E114.65411
G1 X31.555 Y95.508 E114.7546
G1 X31.315 Y95.852 E114.85527
G1 X31.106 Y96.214 E114.95559
G1 X30.929 Y96.594 E115.05619
G1 X30.786 Y96.986 E115.15634
G1 X30.677 Y97.391 E115.257
G1 X30.605 Y97.805 E115.35785
G1 X30.568 Y98.221 E115.45808
G1 X30.568 Y98.642 E115.55912
G1 X30.605 Y99.057 E115.65912
G1 X30.677 Y99.471 E115.75997
G1 X30.786 Y99.876 E115.86063
G1 X30.929 Y100.268 E115.96077
G1 X31.106 Y100.648 E116.06138
G1 X31.315 Y101.01 E116.1617
G1 X31.555 Y101.352 E116.26197
G1 X31.825 Y101.676 E116.3632
G0 F3000 X32.109 Y101.958
G0 X31.49 Y102.584
G0 X31.477 Y102.598
G0 X50.561 Y122.303
G0 X50.614 Y122.387
;TYPE:WALL-INNER
G1 F1800 X49.564 Y123.026 E116.65819
G1 X48.501 Y123.609 E116.94916
G1 X47.34 Y124.181 E117.25979
G1 X46.235 Y124.669 E117.5497
G1 X45.101 Y125.11 E117.84171
G1 X43.875 Y125.526 E118.15243
G1 X42.736 Y125.857 E118.4371
G1 X41.505 Y126.158 E118.74124
G1 X40.294 Y126.399 E119.03758
G1 X39.077 Y126.586 E119.33309
G1 X37.821 Y126.724 E119.63634
G1 X36.623 Y126.803 E119.92449
G1 X35.364 Y126.831 E120.22672
G1 X34.106 Y126.803 E120.52872
G1 X32.908 Y126.724 E120.81686
G1 X31.652 Y126.586 E121.12012
G1 X30.435 Y126.399 E121.41562
G1 X29.224 Y126.158 E121.71196
G1 X27.993 Y125.857 E122.01611
G1 X26.854 Y125.526 E122.30078
G1 X25.628 Y125.11 E122.61149
G1 X24.494 Y124.669 E122.90351
G1 X23.389 Y124.181 E123.19342
G1 X22.228 Y123.609 E123.50404
G1 X21.17 Y123.03 E123.7935
G1 X20.105 Y122.383 E124.09257
G1 X19.084 Y121.701 E124.38725
G1 X18.07 Y120.957 E124.68909
G1 X17.11 Y120.186 E124.98459
G1 X16.176 Y119.367 E125.28273
G1 X15.283 Y118.512 E125.57944
G1 X14.429 Y117.619 E125.87599
G1 X13.592 Y116.666 E126.1804
G1 X12.846 Y115.735 E126.46673
G1 X12.095 Y114.712 E126.7713
G1 X11.414 Y113.693 E127.06545
G1 X10.775 Y112.637 E127.36168
G1 X10.174 Y111.543 E127.66125
G1 X9.611 Y110.402 E127.96661
G1 X9.131 Y109.309 E128.25311
G1 X8.687 Y108.169 E128.54673
G1 X8.269 Y106.937 E128.85896
G1 X7.937 Y105.797 E129.14393
G1 X7.631 Y104.544 E129.45349
G1 X7.394 Y103.36 E129.74329
G1 X7.208 Y102.14 E130.03947
G1 X7.072 Y100.891 E130.341
G1 X6.993 Y99.691 E130.62962
G1 X6.964 Y98.449 E130.92779
G1 X6.993 Y97.159 E131.23746
G1 X7.072 Y95.972 E131.52297
G1 X7.208 Y94.722 E131.82474
G1 X7.395 Y93.499 E132.12168
G1 X7.631 Y92.318 E132.41072
G1 X7.937 Y91.066 E132.72004
G1 X8.279 Y89.892 E133.01352
G1 X8.678 Y88.719 E133.31088
G1 X9.14 Y87.531 E133.6168
G1 X9.619 Y86.444 E133.90188
G1 X10.18 Y85.305 E134.2066
